; generated by PrusaSlicer 2.5.0+win64 on 2023-09-28 at 18:15:22 UTC


;
;
; 

; external perimeters extrusion width = 0.45mm
; perimeters extrusion width = 0.45mm
; infill extrusion width = 0.45mm
; solid infill extrusion width = 0.45mm
; top infill extrusion width = 0.40mm
; first layer extrusion width = 0.42mm

M73 P0 R5
M73 Q0 S5
M201 X1000 Y1000 Z200 E5000 ; sets maximum accelerations, mm/sec^2
M203 X200 Y200 Z12 E120 ; sets maximum feedrates, mm / sec
M204 P1250 R1250 T1250 ; sets acceleration (P, T) and retract acceleration (R), mm/sec^2
M205 X8.00 Y8.00 Z0.40 E4.50 ; sets the jerk limits, mm/sec
M205 S0 T0 ; sets the minimum extruding and travel feed rate, mm/sec
M107
;TYPE:Custom
M862.3 P "MK3S" ; printer model check
M862.1 P0.4 ; nozzle diameter check
M115 U3.11.0 ; tell printer latest fw version
G90 ; use absolute coordinates
M83 ; extruder relative mode
M104 S215 ; set extruder temp
M140 S60 ; set bed temp
M190 S60 ; wait for bed temp
M109 S215 ; wait for extruder temp
G28 W ; home all without mesh bed level
G80 ; mesh bed leveling

G1 Z0.2 F720
G1 Y-3 F1000 ; go outside print area
G92 E0
G1 X60 E9 F1000 ; intro line
G1 X100 E12.5 F1000 ; intro line

G92 E0
M221 S95

; Don't change E values below. Excessive value can damage the printer.
M907 E430 ; set extruder motor current
G21 ; set units to millimeters
G90 ; use absolute coordinates
M83 ; use relative distances for extrusion
M900 K0.05 ; Filament gcode LA 1.5
M900 K30 ; Filament gcode LA 1.0
M107
;LAYER_CHANGE
;Z:0.2
;HEIGHT:0.2
;BEFORE_LAYER_CHANGE
G92 E0.0
;0.2


M73 P1 R5
M73 Q1 S5
G1 E-.8 F2100
G1 Z.4 F720
;AFTER_LAYER_CHANGE
;0.2
G1 X96.113 Y83.536 F10800
G1 Z.2 F720
M73 P2 R5
M73 Q2 S5
G1 E.8 F2100
M204 S800
;TYPE:Skirt/Brim
;WIDTH:0.42
G1 F1200
G1 X96.816 Y82.749 E.03308
G1 X98.717 Y81.393 E.07323
G1 X100.445 Y80.549 E.06031
G1 X101.371 Y80.244 E.03055
G1 X102.489 Y79.997 E.03591
G1 X104.377 Y79.858 E.05936
G1 X105.463 Y79.932 E.0341
G1 X106.592 Y80.131 E.03594
G1 X107.531 Y80.395 E.03061
G1 X108.539 Y80.788 E.03391
G1 X109.545 Y81.306 E.03548
G1 X110.515 Y81.938 E.03628
G1 X111.555 Y82.713 E.04067
G1 X112.27 Y83.503 E.03341
G1 X113.304 Y85.228 E.06305
G1 X113.657 Y86.184 E.03194
G1 X114.043 Y88.703 E.07993
G1 X114.058 Y91.838 E.0983
G1 X113.658 Y94.629 E.08839
G1 X113.311 Y95.575 E.0316
G1 X112.294 Y97.286 E.06241
G1 X111.591 Y98.073 E.03308
G1 X109.69 Y99.43 E.07323
G1 X107.962 Y100.274 E.06031
G1 X107.036 Y100.578 E.03055
G1 X105.918 Y100.825 E.03592
G1 X104.03 Y100.964 E.05936
G1 X102.944 Y100.89 E.03412
G1 X101.815 Y100.691 E.03592
G1 X100.876 Y100.427 E.03061
G1 X99.868 Y100.034 E.03391
G1 X98.862 Y99.516 E.03548
G1 X97.892 Y98.885 E.03629
G1 X96.852 Y98.11 E.04066
G1 X96.138 Y97.319 E.03341
G1 X95.103 Y95.594 E.06306
G1 X94.75 Y94.639 E.03194
G1 X94.364 Y92.119 E.07993
G1 X94.349 Y88.984 E.0983
M73 Q3 S5
G1 X94.749 Y86.193 E.08839
M73 P3 R5
G1 X95.096 Y85.248 E.0316
G1 X96.083 Y83.588 E.06053
M204 S1000
G1 X96.407 Y83.781 F10800
M204 S800
G1 F1200
G1 X97.044 Y83.05 E.0304
G1 X98.915 Y81.713 E.07211
G1 X100.581 Y80.9 E.05812
G1 X101.468 Y80.609 E.02927
G1 X102.555 Y80.369 E.03489
G1 X104.369 Y80.235 E.05705
G1 X105.414 Y80.306 E.03282
G1 X106.51 Y80.499 E.03491
G1 X108.381 Y81.131 E.06189
G1 X109.354 Y81.631 E.03432
G1 X110.25 Y82.211 E.03346
G1 X111.33 Y83.015 E.04221
G1 X111.946 Y83.697 E.02883
G1 X112.98 Y85.422 E.06305
G1 X113.285 Y86.247 E.02756
G1 X113.668 Y88.742 E.07915
G1 X113.681 Y91.838 E.09709
G1 X113.286 Y94.566 E.0864
G1 X112.986 Y95.382 E.02727
G1 X111.97 Y97.093 E.06241
G1 X111.363 Y97.772 E.02855
G1 X109.492 Y99.109 E.07211
G1 X107.826 Y99.922 E.05813
G1 X106.939 Y100.214 E.02927
G1 X105.852 Y100.454 E.03489
G1 X104.038 Y100.587 E.05705
G1 X102.993 Y100.516 E.03284
G1 X101.897 Y100.323 E.0349
G1 X100.026 Y99.692 E.0619
G1 X99.053 Y99.191 E.03431
G1 X98.157 Y98.611 E.03346
G1 X97.077 Y97.807 E.04221
G1 X96.461 Y97.125 E.02883
G1 X95.427 Y95.4 E.06306
G1 X95.122 Y94.576 E.02756
G1 X94.739 Y92.081 E.07915
G1 X94.726 Y88.984 E.09709
G1 X95.121 Y86.257 E.0864
M73 Q4 S5
G1 X95.421 Y85.44 E.02727
G1 X96.376 Y83.832 E.05865
M204 S1000
;WIPE_START
M73 P4 R5
G1 F8640
G1 X97.044 Y83.05 E-.2375
G1 X98.885 Y81.735 E-.5225
;WIPE_END
G1 E-.04 F2100
G1 Z.6 F720
G1 X98.54 Y85.469 F10800
G1 Z.2 F720
G1 E.8 F2100
M204 S800
G1 F1200
G1 X99.296 Y84.694 E.03395
G1 X100.495 Y83.876 E.0455
G1 X101.849 Y83.277 E.04643
G1 X103.237 Y82.961 E.04464
G1 X104.677 Y82.912 E.04518
G1 X105.951 Y83.103 E.04038
G1 X106.934 Y83.412 E.03232
G1 X107.887 Y83.862 E.03304
G1 X109.042 Y84.644 E.04372
G1 X110.019 Y85.671 E.04447
G1 X110.689 Y87.092 E.04925
G1 X110.985 Y88.678 E.05056
G1 X111.018 Y91.785 E.09745
G1 X110.447 Y94.409 E.08418
G1 X109.867 Y95.353 E.03476
G1 X109.111 Y96.128 E.03395
G1 X107.912 Y96.947 E.0455
G1 X106.558 Y97.546 E.04643
G1 X105.17 Y97.862 E.04464
G1 X103.73 Y97.91 E.04518
G1 X102.456 Y97.719 E.04038
G1 X101.473 Y97.411 E.03232
G1 X100.52 Y96.96 E.03304
G1 X99.365 Y96.179 E.04371
G1 X98.388 Y95.151 E.04447
G1 X97.718 Y93.73 E.04926
G1 X97.422 Y92.145 E.05056
G1 X97.389 Y89.037 E.09745
G1 X97.96 Y86.413 E.08418
G1 X98.509 Y85.52 E.03288
M204 S1000
G1 X98.825 Y85.717 F10800
M204 S800
G1 F1200
G1 X99.553 Y84.971 E.03267
G1 X100.692 Y84.197 E.04319
G1 X101.951 Y83.64 E.04317
G1 X103.269 Y83.337 E.04239
G1 X104.639 Y83.288 E.043
G1 X105.852 Y83.468 E.03844
M73 Q5 S5
G1 X106.809 Y83.768 E.03144
G1 X107.712 Y84.196 E.03135
G1 X108.813 Y84.944 E.04171
M73 P5 R5
G1 X109.724 Y85.908 E.04158
G1 X110.336 Y87.228 E.04565
G1 X110.611 Y88.729 E.04783
G1 X110.641 Y91.768 E.0953
G1 X110.108 Y94.24 E.07929
G1 X109.582 Y95.106 E.03175
G1 X108.854 Y95.851 E.03266
G1 X107.715 Y96.625 E.0432
G1 X106.456 Y97.182 E.04317
G1 X105.138 Y97.485 E.04239
G1 X103.768 Y97.534 E.043
G1 X102.555 Y97.355 E.03844
G1 X101.598 Y97.055 E.03144
G1 X100.695 Y96.626 E.03135
G1 X99.594 Y95.879 E.04171
G1 X98.683 Y94.915 E.04158
G1 X98.071 Y93.594 E.04566
G1 X97.796 Y92.093 E.04783
G1 X97.766 Y89.054 E.0953
G1 X98.299 Y86.582 E.07929
G1 X98.794 Y85.768 E.02988
M204 S1000
G1 X99.111 Y85.963 F10800
M204 S800
G1 F1200
G1 X99.782 Y85.272 E.0302
G1 X100.862 Y84.535 E.041
G1 X102.055 Y84.003 E.04095
G1 X103.302 Y83.713 E.04014
G1 X104.602 Y83.664 E.04081
G1 X105.755 Y83.832 E.03651
G1 X106.66 Y84.114 E.02972
G1 X107.538 Y84.531 E.03048
G1 X108.553 Y85.218 E.03843
G1 X109.428 Y86.143 E.03993
G1 X109.983 Y87.362 E.042
G1 X110.237 Y88.779 E.04514
G1 X110.263 Y91.751 E.09318
G1 X109.769 Y94.073 E.07444
G1 X109.296 Y94.859 E.02876
G1 X108.626 Y95.551 E.03019
G1 X107.545 Y96.288 E.041
G1 X106.352 Y96.819 E.04095
G1 X105.105 Y97.109 E.04014
G1 X103.805 Y97.159 E.04081
G1 X102.652 Y96.99 E.03651
G1 X101.748 Y96.708 E.02972
G1 X100.869 Y96.292 E.03048
G1 X99.854 Y95.604 E.03843
M73 Q6 S5
G1 X98.979 Y94.679 E.03993
G1 X98.424 Y93.46 E.042
M73 P6 R5
G1 X98.17 Y92.043 E.04514
G1 X98.144 Y89.071 E.09318
G1 X98.638 Y86.749 E.07445
G1 X99.08 Y86.014 E.02688
M204 S1000
G1 X99.403 Y86.209 F10800
M204 S800
G1 F1200
G1 X100.037 Y85.549 E.02868
G1 X101.059 Y84.856 E.03871
G1 X102.19 Y84.355 E.0388
G1 X103.369 Y84.084 E.0379
G1 X104.566 Y84.039 E.03756
G1 X105.657 Y84.197 E.03457
G1 X106.534 Y84.47 E.02881
G1 X107.363 Y84.865 E.02879
G1 X108.293 Y85.492 E.03518
G1 X109.131 Y86.379 E.03825
G1 X109.629 Y87.494 E.03828
G1 X109.863 Y88.829 E.0425
G1 X109.886 Y91.734 E.0911
G1 X109.43 Y93.906 E.0696
G1 X108.984 Y94.645 E.02706
G1 X108.37 Y95.273 E.02753
G1 X107.348 Y95.966 E.03871
G1 X106.217 Y96.467 E.0388
G1 X105.038 Y96.738 E.0379
G1 X103.841 Y96.783 E.03756
G1 X102.75 Y96.626 E.03457
G1 X101.873 Y96.352 E.02881
G1 X101.044 Y95.957 E.02878
G1 X100.114 Y95.33 E.03517
G1 X99.276 Y94.444 E.03825
G1 X98.778 Y93.329 E.03828
G1 X98.544 Y91.994 E.0425
G1 X98.521 Y89.088 E.0911
G1 X98.978 Y86.916 E.0696
G1 X99.372 Y86.26 E.024
M204 S1000
G1 X99.695 Y86.455 F10800
M204 S800
G1 F1200
G1 X99.734 Y86.391 E.00233
G1 X100.291 Y85.828 E.02484
G1 X101.256 Y85.178 E.03646
G1 X102.294 Y84.719 E.03559
G1 X103.402 Y84.46 E.03569
G1 X104.53 Y84.415 E.03539
G1 X105.559 Y84.561 E.0326
G1 X106.409 Y84.826 E.0279
G1 X107.188 Y85.199 E.02708
G1 X108.034 Y85.767 E.03194
G1 X108.835 Y86.614 E.03656
G1 X109.261 Y87.581 E.03313
G1 X109.489 Y88.878 E.0413
G1 X109.509 Y91.717 E.08901
G1 X109.09 Y93.739 E.06476
M73 Q7 S5
G1 X108.673 Y94.431 E.02532
M73 P7 R5
G1 X108.116 Y94.994 E.02483
G1 X107.151 Y95.644 E.03647
G1 X106.113 Y96.104 E.03559
G1 X105.005 Y96.362 E.03569
G1 X103.877 Y96.407 E.03539
G1 X102.848 Y96.261 E.0326
G1 X101.998 Y95.996 E.0279
G1 X101.219 Y95.623 E.02708
G1 X100.373 Y95.056 E.03194
G1 X99.572 Y94.208 E.03656
G1 X99.146 Y93.241 E.03313
G1 X98.918 Y91.944 E.0413
G1 X98.898 Y89.105 E.08901
G1 X99.317 Y87.083 E.06476
G1 X99.664 Y86.506 E.02111
M204 S1000
G1 X99.985 Y86.696 F10800
M204 S800
G1 F1200
G1 X100.019 Y86.638 E.00212
G1 X100.519 Y86.13 E.02235
G1 X101.425 Y85.516 E.03431
G1 X102.398 Y85.081 E.03341
G1 X103.436 Y84.836 E.03346
G1 X104.495 Y84.791 E.03323
G1 X105.462 Y84.926 E.03061
G1 X106.283 Y85.182 E.02696
G1 X107.012 Y85.533 E.02538
G1 X107.775 Y86.041 E.02873
G1 X108.538 Y86.849 E.03484
G1 X108.894 Y87.667 E.02798
G1 X109.114 Y88.928 E.04012
G1 X109.132 Y91.7 E.08692
G1 X108.749 Y93.575 E.06
G1 X108.388 Y94.184 E.02221
G1 X107.888 Y94.693 E.02235
G1 X106.982 Y95.307 E.03432
G1 X106.009 Y95.741 E.03341
G1 X104.97 Y95.986 E.03346
G1 X103.912 Y96.031 E.03323
G1 X102.945 Y95.896 E.03061
G1 X102.124 Y95.641 E.02696
G1 X101.395 Y95.289 E.02538
G1 X100.632 Y94.781 E.02872
G1 X99.869 Y93.974 E.03484
G1 X99.513 Y93.155 E.02799
G1 X99.293 Y91.895 E.04012
G1 X99.275 Y89.122 E.08692
G1 X99.658 Y87.247 E.06
G1 X99.954 Y86.748 E.01821
M204 S1000
G1 X100.279 Y86.94 F10800
M204 S800
G1 F1200
G1 X100.331 Y86.852 E.00324
G1 X100.772 Y86.409 E.01957
G1 X101.621 Y85.838 E.03209
G1 X102.534 Y85.433 E.03132
G1 X103.472 Y85.212 E.03019
G1 X104.462 Y85.167 E.03107
G1 X105.365 Y85.291 E.0286
G1 X106.157 Y85.537 E.02602
G1 X106.837 Y85.867 E.02367
G1 X107.516 Y86.316 E.02554
G1 X108.24 Y87.083 E.03308
G1 X108.526 Y87.753 E.02284
G1 X108.74 Y88.977 E.03896
G1 X108.755 Y91.683 E.08484
M73 Q8 S5
G1 X108.408 Y93.41 E.05523
M73 P8 R5
G1 X108.076 Y93.971 E.02044
G1 X107.635 Y94.413 E.01957
G1 X106.786 Y94.984 E.0321
G1 X105.873 Y95.389 E.03132
G1 X104.935 Y95.61 E.03019
G1 X103.945 Y95.655 E.03107
G1 X103.042 Y95.532 E.0286
G1 X102.25 Y95.285 E.02602
G1 X101.571 Y94.955 E.02367
G1 X100.891 Y94.506 E.02553
G1 X100.167 Y93.739 E.03308
G1 X99.881 Y93.069 E.02284
G1 X99.667 Y91.845 E.03896
G1 X99.652 Y89.139 E.08484
G1 X99.999 Y87.412 E.05523
G1 X100.248 Y86.992 E.01532
M204 S1000
G1 X100.57 Y87.179 F10800
M204 S800
G1 F1200
G1 X100.616 Y87.1 E.00288
G1 X101.026 Y86.689 E.01821
G1 X101.79 Y86.175 E.02886
G1 X102.64 Y85.796 E.02918
G1 X103.508 Y85.588 E.02799
G1 X104.429 Y85.543 E.02891
G1 X105.269 Y85.655 E.02656
G1 X106.031 Y85.893 E.02505
G1 X106.66 Y86.201 E.02195
G1 X107.26 Y86.594 E.0225
G1 X107.909 Y87.266 E.02927
G1 X108.158 Y87.841 E.01965
G1 X108.366 Y89.026 E.03774
G1 X108.377 Y91.666 E.08277
G1 X108.066 Y93.249 E.05057
G1 X107.791 Y93.722 E.01717
G1 X107.381 Y94.133 E.0182
G1 X106.617 Y94.647 E.02887
G1 X105.767 Y95.027 E.02918
G1 X104.899 Y95.234 E.02799
G1 X103.978 Y95.279 E.02891
G1 X103.138 Y95.167 E.02656
G1 X102.376 Y94.929 E.02505
G1 X101.747 Y94.622 E.02195
G1 X101.147 Y94.228 E.0225
G1 X100.498 Y93.557 E.02927
G1 X100.249 Y92.982 E.01965
G1 X100.041 Y91.796 E.03774
G1 X100.03 Y89.156 E.08277
G1 X100.341 Y87.573 E.05057
G1 X100.54 Y87.231 E.01241
M204 S1000
G1 X100.866 Y87.421 F10800
M204 S800
G1 F1200
G1 X100.929 Y87.312 E.00393
G1 X101.276 Y86.971 E.01527
G1 X101.985 Y86.498 E.02672
G1 X102.776 Y86.148 E.02712
G1 X103.577 Y85.959 E.02581
G1 X104.397 Y85.919 E.02573
G1 X105.172 Y86.02 E.02451
G1 X105.905 Y86.249 E.02406
G1 X106.484 Y86.534 E.02023
G1 X107.008 Y86.875 E.01961
G1 X107.579 Y87.452 E.02546
G1 X107.791 Y87.929 E.01638
G1 X107.992 Y89.075 E.03649
G1 X108 Y91.649 E.08071
G1 X107.724 Y93.087 E.0459
G1 X107.478 Y93.51 E.01533
G1 X107.131 Y93.851 E.01527
G1 X106.422 Y94.324 E.02672
G1 X105.631 Y94.675 E.02712
G1 X104.83 Y94.863 E.02581
M73 P9 R5
M73 Q9 S5
G1 X104.01 Y94.903 E.02573
G1 X103.235 Y94.802 E.02451
G1 X102.502 Y94.574 E.02406
G1 X101.923 Y94.288 E.02023
G1 X101.399 Y93.947 E.0196
G1 X100.828 Y93.371 E.02546
G1 X100.616 Y92.893 E.01638
G1 X100.415 Y91.747 E.03649
G1 X100.407 Y89.173 E.08071
G1 X100.683 Y87.735 E.0459
G1 X100.835 Y87.473 E.00952
M204 S1000
G1 X101.16 Y87.656 F10800
M204 S800
G1 F1200
G1 X101.213 Y87.562 E.00337
G1 X101.527 Y87.253 E.01382
G1 X102.18 Y86.822 E.02453
G1 X102.881 Y86.51 E.02405
G1 X103.615 Y86.334 E.02366
G1 X104.367 Y86.295 E.02361
G1 X105.077 Y86.386 E.02245
G1 X105.753 Y86.594 E.02216
G1 X106.288 Y86.856 E.01869
G1 X106.787 Y87.181 E.01867
G1 X107.252 Y87.641 E.0205
G1 X107.424 Y88.019 E.01303
G1 X107.618 Y89.124 E.03519
G1 X107.623 Y91.633 E.07865
G1 X107.38 Y92.931 E.0414
G1 X107.194 Y93.26 E.01186
G1 X106.88 Y93.569 E.01382
G1 X106.227 Y94.001 E.02454
G1 X105.526 Y94.312 E.02405
G1 X104.792 Y94.488 E.02366
G1 X104.04 Y94.527 E.02361
G1 X103.33 Y94.437 E.02245
G1 X102.654 Y94.228 E.02216
G1 X102.119 Y93.966 E.01869
G1 X101.62 Y93.641 E.01867
G1 X101.156 Y93.181 E.02051
G1 X100.983 Y92.803 E.01303
G1 X100.789 Y91.698 E.03519
G1 X100.784 Y89.189 E.07865
G1 X101.027 Y87.892 E.0414
G1 X101.131 Y87.708 E.00661
M204 S1000
G1 X101.459 Y87.893 F10800
M204 S800
G1 F1200
G1 X101.527 Y87.773 E.00431
G1 X101.773 Y87.54 E.01064
G1 X102.373 Y87.146 E.02251
G1 X103.017 Y86.862 E.02207
G1 X103.653 Y86.71 E.02051
G1 X104.338 Y86.671 E.0215
G1 X104.983 Y86.751 E.02039
G1 X105.6 Y86.939 E.02022
G1 X106.111 Y87.19 E.01783
G1 X106.566 Y87.487 E.01705
G1 X106.927 Y87.835 E.01571
G1 X107.057 Y88.11 E.00954
G1 X107.243 Y89.173 E.03384
G1 X107.246 Y91.617 E.07661
G1 X107.036 Y92.773 E.03686
G1 X106.88 Y93.049 E.00992
G1 X106.634 Y93.283 E.01064
G1 X106.034 Y93.676 E.02251
G1 X105.39 Y93.96 E.02207
G1 X104.754 Y94.112 E.02051
G1 X104.069 Y94.151 E.0215
G1 X103.424 Y94.071 E.02039
G1 X102.807 Y93.883 E.02022
G1 X102.296 Y93.633 E.01783
G1 X101.841 Y93.335 E.01705
G1 X101.48 Y92.987 E.01572
G1 X101.35 Y92.712 E.00954
G1 X101.164 Y91.649 E.03384
G1 X101.161 Y89.206 E.07661
G1 X101.371 Y88.049 E.03686
G1 X101.43 Y87.945 E.00373
M204 S1000
G1 X101.746 Y88.137 F10800
M204 S800
G1 F1200
G1 X101.831 Y87.996 E.00519
G1 X102.014 Y87.83 E.00773
G1 X102.566 Y87.47 E.02067
G1 X103.123 Y87.224 E.0191
G1 X103.694 Y87.085 E.01841
G1 X104.311 Y87.048 E.01939
G1 X104.891 Y87.117 E.01833
G1 X105.449 Y87.285 E.01825
G1 X105.934 Y87.523 E.01696
G1 X106.347 Y87.794 E.01549
G1 X106.607 Y88.037 E.01116
G1 X106.691 Y88.205 E.00587
G1 X106.869 Y89.222 E.03239
M73 P10 R5
G1 X106.869 Y91.599 E.07453
M73 Q10 S5
G1 X106.672 Y92.668 E.03407
G1 X106.576 Y92.826 E.00582
G1 X106.393 Y92.992 E.00773
G1 X105.841 Y93.352 E.02067
G1 X105.284 Y93.598 E.0191
G1 X104.713 Y93.737 E.01841
G1 X104.096 Y93.774 E.01939
G1 X103.516 Y93.705 E.01833
G1 X102.958 Y93.537 E.01825
G1 X102.473 Y93.299 E.01696
G1 X102.06 Y93.028 E.01548
G1 X101.8 Y92.785 E.01116
G1 X101.716 Y92.618 E.00587
G1 X101.538 Y91.6 E.03239
G1 X101.538 Y89.223 E.07453
G1 X101.728 Y88.194 E.03282
M204 S1000
G1 X102.081 Y88.305 F10800
M204 S800
G1 F1200
G1 X102.111 Y88.251 E.00194
G1 X102.256 Y88.12 E.00614
G1 X102.758 Y87.795 E.01874
G1 X103.231 Y87.586 E.01621
G1 X103.736 Y87.46 E.01632
G1 X104.286 Y87.424 E.01727
G1 X104.801 Y87.484 E.01626
G1 X105.298 Y87.631 E.01627
G1 X105.737 Y87.845 E.01531
G1 X106.13 Y88.103 E.01472
G1 X106.296 Y88.252 E.00702
G1 X106.326 Y88.305 E.00191
G1 X106.492 Y89.239 E.02973
G1 X106.492 Y91.583 E.0735
G1 X106.326 Y92.517 E.02973
G1 X106.296 Y92.571 E.00194
G1 X106.151 Y92.703 E.00614
G1 X105.649 Y93.027 E.01875
G1 X105.176 Y93.236 E.01621
G1 X104.671 Y93.362 E.01632
G1 X104.121 Y93.398 E.01727
G1 X103.606 Y93.339 E.01626
G1 X103.109 Y93.191 E.01627
G1 X102.67 Y92.978 E.01531
G1 X102.277 Y92.72 E.01472
G1 X102.111 Y92.57 E.00702
G1 X102.081 Y92.517 E.00191
G1 X101.915 Y91.583 E.02973
G1 X101.915 Y89.239 E.0735
