; generated by PrusaSlicer 2.5.0+win64 on 2023-09-30 at 16:34:57 UTC


;
;
; 

; external perimeters extrusion width = 0.45mm
; perimeters extrusion width = 0.45mm
; infill extrusion width = 0.45mm
; solid infill extrusion width = 0.45mm
; top infill extrusion width = 0.40mm
; first layer extrusion width = 0.42mm

M73 P0 R129
M73 Q0 S130
M201 X1000 Y1000 Z200 E5000 ; sets maximum accelerations, mm/sec^2
M203 X200 Y200 Z12 E120 ; sets maximum feedrates, mm / sec
M204 P1250 R1250 T1250 ; sets acceleration (P, T) and retract acceleration (R), mm/sec^2
M205 X8.00 Y8.00 Z0.40 E4.50 ; sets the jerk limits, mm/sec
M205 S0 T0 ; sets the minimum extruding and travel feed rate, mm/sec
M107
;TYPE:Custom
M862.3 P "MK3S" ; printer model check
M862.1 P0.4 ; nozzle diameter check
M115 U3.11.0 ; tell printer latest fw version
G90 ; use absolute coordinates
M83 ; extruder relative mode
M104 S215 ; set extruder temp
M140 S60 ; set bed temp
M190 S60 ; wait for bed temp
M109 S215 ; wait for extruder temp
G28 W ; home all without mesh bed level
G80 ; mesh bed leveling

G1 Z0.2 F720
G1 Y-3 F1000 ; go outside print area
G92 E0
G1 X60 E9 F1000 ; intro line
G1 X100 E12.5 F1000 ; intro line

G92 E0
M221 S95

; Don't change E values below. Excessive value can damage the printer.
M907 E430 ; set extruder motor current
G21 ; set units to millimeters
G90 ; use absolute coordinates
M83 ; use relative distances for extrusion
M900 K0.05 ; Filament gcode LA 1.5
M900 K30 ; Filament gcode LA 1.0
M107
;LAYER_CHANGE
;Z:0.2
;HEIGHT:0.2
;BEFORE_LAYER_CHANGE
G92 E0.0
;0.2


G1 E-.8 F2100
G1 Z.4 F720
;AFTER_LAYER_CHANGE
;0.2
G1 X63.041 Y59.988 F10800
G1 Z.2 F720
G1 E.8 F2100
M204 S800
;TYPE:Skirt/Brim
;WIDTH:0.42
G1 F1200
G1 X70.383 Y52.659 E.32526
G1 X71.594 Y51.772 E.04706
G1 X72.751 Y51.221 E.04018
G1 X73.992 Y50.878 E.04038
G1 X75.275 Y50.757 E.04039
G1 X174.723 Y50.757 E3.11815
G1 X176.217 Y50.92 E.04712
G1 X177.542 Y51.338 E.04355
G1 X178.86 Y52.061 E.04713
G1 X179.885 Y52.914 E.0418
G1 X186.959 Y59.988 E.31368
G1 X187.563 Y60.672 E.02863
G1 X188.157 Y61.561 E.0335
G1 X188.654 Y62.626 E.03687
G1 X188.954 Y63.652 E.0335
G1 X189.109 Y64.826 E.03714
G1 X189.086 Y145.492 E2.52921
G1 X188.933 Y146.444 E.03025
G1 X188.577 Y147.572 E.03708
G1 X188.105 Y148.53 E.03349
G1 X187.563 Y149.329 E.03026
G1 X186.959 Y150.013 E.02863
G1 X179.629 Y157.331 E.32474
G1 X178.629 Y158.093 E.03943
G1 X177.327 Y158.75 E.04572
G1 X176.029 Y159.119 E.04232
G1 X174.778 Y159.244 E.03942
G1 X74.815 Y159.227 E3.13425
G1 X73.673 Y159.057 E.03622
M73 P0 R128
G1 X72.677 Y158.752 E.03266
G1 X71.639 Y158.256 E.03608
G1 X70.777 Y157.674 E.03259
G1 X70.112 Y157.084 E.02786
G1 X62.784 Y149.742 E.32526
G1 X62.008 Y148.717 E.04032
G1 X61.423 Y147.572 E.04031
G1 X61.045 Y146.343 E.04032
G1 X60.881 Y144.851 E.04706
G1 X60.899 Y64.691 E2.51337
G1 X61.069 Y63.546 E.03628
G1 X61.374 Y62.552 E.0326
G1 X61.87 Y61.514 E.03608
G1 X62.452 Y60.653 E.03259
G1 X63.001 Y60.033 E.02598
M204 S1000
; printing object robot - bat holder.stl id:0 copy 0
;WIPE_START
G1 F8640
G1 X65.33 Y57.707 E-.76
;WIPE_END
G1 E-.04 F2100
G1 Z.6 F720
G1 X76.252 Y130.814 F10800
G1 Z.2 F720
G1 E.8 F2100
M204 S800
;TYPE:Perimeter
;WIDTH:0.419999
G1 F1200
G1 X76.346 Y130.715 E.00428
G1 X76.412 Y130.45 E.00855
G1 X76.412 Y79.551 E1.59591
G1 X76.382 Y79.369 E.0058
G1 X76.246 Y79.151 E.00803
G1 X65.297 Y68.202 E.4855
G1 X64.82 Y67.636 E.02323
G1 X64.546 Y67.169 E.01697
G1 X64.319 Y66.697 E.01641
G1 X64.162 Y66.184 E.01682
G1 X64.055 Y65.472 E.02258
G1 X64.07 Y64.752 E.02258
G1 X64.159 Y64.235 E.01644
G1 X64.385 Y63.552 E.02258
G1 X64.638 Y63.073 E.01697
G1 X64.921 Y62.633 E.01641
G1 X65.293 Y62.21 E.01766
G1 X72.33 Y55.173 E.31204
G1 X72.913 Y54.684 E.02387
G1 X73.549 Y54.317 E.02301
G1 X74.072 Y54.127 E.01744
G1 X74.591 Y53.986 E.01686
G1 X75.139 Y53.926 E.01729
G1 X75.884 Y53.959 E.02339
G1 X76.419 Y54.065 E.01709
G1 X76.935 Y54.24 E.01709
G1 X77.318 Y54.44 E.01357
G1 X77.861 Y54.778 E.02004
G1 X78.318 Y55.165 E.01877
G1 X88.59 Y65.436 E.45545
G1 X89.411 Y66.222 E.03563
G1 X89.675 Y66.288 E.00855
G1 X160.325 Y66.288 E2.21515
G1 X160.507 Y66.257 E.0058
G1 X160.725 Y66.122 E.00803
G1 X171.673 Y55.173 E.48548
G1 X172.12 Y54.798 E.01829
G1 X172.56 Y54.489 E.01687
G1 X173.054 Y54.245 E.01729
G1 X173.76 Y54.022 E.0232
G1 X174.488 Y53.926 E.02301
G1 X175.221 Y53.958 E.02301
G1 X175.943 Y54.119 E.0232
G1 X176.446 Y54.314 E.0169
G1 X177.087 Y54.684 E.0232
G1 X177.67 Y55.173 E.02387
G1 X184.702 Y62.206 E.31183
G1 X185.192 Y62.789 E.02387
G1 X185.47 Y63.271 E.01744
G1 X185.698 Y63.757 E.01686
G1 X185.853 Y64.287 E.01729
G1 X185.949 Y65.02 E.0232
G1 X185.925 Y65.576 E.01744
G1 X185.856 Y66.109 E.01686
G1 X185.702 Y66.639 E.01729
G1 X185.389 Y67.309 E.0232
G1 X185.114 Y67.702 E.01503
G1 X184.711 Y68.194 E.01993
G1 X174.439 Y78.465 E.45546
G1 X173.654 Y79.286 E.03563
G1 X173.588 Y79.551 E.00855
G1 X173.588 Y130.45 E1.59591
G1 X173.618 Y130.633 E.0058
G1 X173.754 Y130.85 E.00803
G1 X184.702 Y141.799 E.48548
G1 X185.192 Y142.382 E.02387
G1 X185.559 Y143.018 E.02301
G1 X185.749 Y143.54 E.01744
G1 X185.889 Y144.059 E.01686
G1 X185.949 Y144.607 E.01729
G1 X185.917 Y145.347 E.0232
G1 X185.758 Y146.063 E.02301
G1 X185.477 Y146.741 E.02301
G1 X185.08 Y147.365 E.0232
G1 X184.706 Y147.791 E.01776
G1 X177.669 Y154.828 E.31204
G1 X177.103 Y155.306 E.02323
G1 X176.487 Y155.667 E.02239
G1 X175.981 Y155.859 E.01697
G1 X175.477 Y156.002 E.01641
G1 X174.945 Y156.071 E.01682
G1 X174.22 Y156.055 E.02276
G1 X173.703 Y155.966 E.01644
G1 X173.019 Y155.741 E.02258
G1 X172.652 Y155.546 E.01302
G1 X172.126 Y155.214 E.0195
G1 X171.682 Y154.837 E.01827
G1 X161.41 Y144.565 E.45547
G1 X160.589 Y143.779 E.03563
G1 X160.325 Y143.713 E.00855
G1 X89.675 Y143.713 E2.21515
G1 X89.493 Y143.744 E.0058
M73 Q0 S129
G1 X89.275 Y143.879 E.00803
G1 X78.326 Y154.828 E.4855
G1 X77.76 Y155.306 E.02323
G1 X77.144 Y155.667 E.02239
G1 X76.476 Y155.92 E.02239
G1 X75.775 Y156.055 E.02239
G1 X75.061 Y156.07 E.02239
G1 X74.354 Y155.965 E.02239
G1 X73.676 Y155.741 E.02239
G1 X73.31 Y155.547 E.01299
G1 X72.784 Y155.214 E.01951
G1 X72.339 Y154.837 E.01829
G1 X65.298 Y147.795 E.31223
G1 X64.808 Y147.212 E.02387
G1 X64.53 Y146.731 E.01744
G1 X64.302 Y146.244 E.01686
G1 X64.147 Y145.714 E.01729
G1 X64.051 Y144.981 E.0232
G1 X64.083 Y144.241 E.0232
G1 X64.189 Y143.707 E.01709
G1 X64.365 Y143.191 E.01709
G1 X64.564 Y142.807 E.01357
G1 X64.903 Y142.265 E.02005
G1 X65.289 Y141.807 E.01877
G1 X75.561 Y131.536 E.45546
G1 X76.21 Y130.857 E.02947
M204 S1000
G1 X75.952 Y130.611 F10800
M204 S800
;TYPE:External perimeter
G1 F1200
G1 X76.035 Y130.45 E.00568
G1 X76.035 Y79.551 E1.59591
G1 X75.98 Y79.418 E.00452
G1 X65.019 Y68.457 E.486
G1 X64.511 Y67.854 E.02474
G1 X64.22 Y67.36 E.01797
G1 X63.964 Y66.827 E.01854
G1 X63.793 Y66.268 E.01833
G1 X63.678 Y65.496 E.02446
G1 X63.694 Y64.716 E.02446
G1 X63.792 Y64.144 E.0182
G1 X64.036 Y63.403 E.02446
G1 X64.305 Y62.897 E.01798
G1 X64.625 Y62.399 E.01854
G1 X65.018 Y61.952 E.01866
G1 X72.075 Y54.895 E.31293
G1 X72.696 Y54.374 E.02542
G1 X73.389 Y53.974 E.02508
G1 X73.943 Y53.772 E.01847
G1 X74.529 Y53.614 E.01905
G1 X75.127 Y53.548 E.01884
G1 X75.929 Y53.583 E.0252
G1 X76.516 Y53.7 E.01877
G1 X77.083 Y53.892 E.01877
G1 X77.796 Y54.263 E.0252
G1 X78.084 Y54.474 E.01119
G1 X78.579 Y54.892 E.02032
G1 X89.542 Y65.855 E.48612
G1 X89.675 Y65.911 E.00452
G1 X160.325 Y65.911 E2.21515
G1 X160.458 Y65.855 E.00452
G1 X171.418 Y54.895 E.48599
G1 X171.878 Y54.509 E.01881
G1 X172.375 Y54.159 E.01906
G1 X172.913 Y53.894 E.01884
G1 X173.678 Y53.653 E.02514
G1 X174.471 Y53.548 E.02508
G1 X175.27 Y53.583 E.02508
G1 X176.053 Y53.757 E.02514
G1 X176.609 Y53.973 E.01871
G1 X177.304 Y54.374 E.02514
G1 X177.925 Y54.895 E.02542
G1 X184.98 Y61.951 E.31286
G1 X185.502 Y62.572 E.02542
G1 X185.796 Y63.082 E.01847
G1 X186.055 Y63.632 E.01905
G1 X186.223 Y64.209 E.01884
G1 X186.327 Y65.004 E.02514
G1 X186.302 Y65.592 E.01847
G1 X186.224 Y66.195 E.01906
G1 X186.056 Y66.772 E.01884
G1 X185.717 Y67.499 E.02514
G1 X185.423 Y67.918 E.01607
G1 X184.983 Y68.454 E.02174
G1 X174.02 Y79.418 E.48612
G1 X173.965 Y79.551 E.00452
G1 X173.965 Y130.45 E1.59591
G1 X174.02 Y130.583 E.00452
G1 X184.98 Y141.544 E.48599
G1 X185.502 Y142.165 E.02543
G1 X185.902 Y142.858 E.02508
G1 X186.103 Y143.411 E.01847
G1 X186.262 Y143.998 E.01905
G1 X186.327 Y144.595 E.01884
G1 X186.292 Y145.396 E.02514
G1 X186.119 Y146.177 E.02508
G1 X185.813 Y146.916 E.02508
G1 X185.382 Y147.592 E.02514
G1 X184.982 Y148.049 E.01905
G1 X177.925 Y155.106 E.31293
G1 X177.321 Y155.615 E.02474
G1 X176.65 Y156.009 E.02441
G1 X176.114 Y156.211 E.01798
G1 X175.545 Y156.374 E.01854
G1 X174.965 Y156.448 E.01833
G1 X174.184 Y156.432 E.02452
G1 X173.611 Y156.333 E.0182
G1 X172.87 Y156.089 E.02446
G1 X172.181 Y155.723 E.02446
G1 X171.902 Y155.517 E.01088
G1 X171.421 Y155.109 E.01977
G1 X160.458 Y144.146 E.48613
G1 X160.325 Y144.091 E.00452
G1 X89.675 Y144.091 E2.21515
G1 X89.542 Y144.146 E.00452
G1 X78.582 Y155.106 E.486
G1 X77.979 Y155.615 E.02474
G1 X77.307 Y156.009 E.02441
G1 X76.579 Y156.284 E.02441
G1 X75.815 Y156.432 E.02441
G1 X75.036 Y156.448 E.02441
G1 X74.267 Y156.333 E.02441
G1 X73.527 Y156.089 E.0244
G1 X72.838 Y155.723 E.02446
G1 X72.56 Y155.517 E.01086
G1 X72.078 Y155.109 E.01979
G1 X65.02 Y148.05 E.313
G1 X64.498 Y147.429 E.02542
G1 X64.204 Y146.919 E.01847
G1 X63.945 Y146.369 E.01905
G1 X63.777 Y145.792 E.01884
G1 X63.673 Y144.997 E.02514
G1 X63.708 Y144.196 E.02514
G1 X63.824 Y143.609 E.01877
G1 X64.017 Y143.042 E.01877
G1 X64.388 Y142.33 E.0252
G1 X64.599 Y142.042 E.01119
G1 X65.017 Y141.547 E.02032
G1 X75.91 Y130.654 E.48302
M204 S1000
G1 X76.133 Y130.621 F10800
;WIPE_START
G1 F8640
G1 X76.035 Y130.45 E-.05516
G1 X76.035 Y127.398 E-.70484
;WIPE_END
G1 E-.04 F2100
G1 Z.6 F720
G1 X174.395 Y62.177 F10800
G1 Z.2 F720
G1 E.8 F2100
M204 S800
;TYPE:Perimeter
M73 P1 R128
G1 F1200
G1 X174.761 Y62.185 E.0115
G1 X175.458 Y62.344 E.02241
G1 X176.116 Y62.654 E.0228
G1 X176.594 Y63.006 E.01862
M73 Q1 S129
G1 X176.993 Y63.429 E.01824
G1 X177.373 Y64.035 E.02241
G1 X177.619 Y64.718 E.02278
G1 X177.707 Y65.305 E.01862
G1 X177.691 Y65.864 E.01753
G1 X177.534 Y66.572 E.02271
G1 X177.29 Y67.127 E.019
G1 X176.876 Y67.71 E.02243
G1 X176.229 Y68.274 E.02692
G1 X175.448 Y68.659 E.02729
G1 X174.594 Y68.829 E.02731
G1 X173.988 Y68.816 E.019
G1 X173.292 Y68.657 E.02241
G1 X172.634 Y68.348 E.02279
G1 X172.156 Y67.995 E.01862
G1 X171.757 Y67.572 E.01824
G1 X171.473 Y67.153 E.01587
G1 X171.173 Y66.435 E.02438
G1 X171.059 Y65.863 E.01829
G1 X171.059 Y65.139 E.02271
G1 X171.168 Y64.578 E.01792
G1 X171.387 Y64.015 E.01894
G1 X171.866 Y63.302 E.02693
G1 X172.304 Y62.883 E.019
G1 X172.76 Y62.58 E.01715
G1 X173.313 Y62.337 E.01894
G1 X174.156 Y62.172 E.02694
G1 X174.335 Y62.176 E.00561
M204 S1000
G1 X174.904 Y62.6 F10800
M204 S800
;TYPE:External perimeter
G1 F1200
G1 X175.368 Y62.71 E.01496
G1 X175.949 Y62.992 E.02023
G1 X176.364 Y63.306 E.01631
G1 X176.715 Y63.684 E.01618
G1 X177.05 Y64.23 E.0201
G1 X177.262 Y64.84 E.02022
G1 X177.334 Y65.355 E.01631
G1 X177.323 Y65.783 E.01343
G1 X177.166 Y66.49 E.02271
G1 X176.949 Y66.967 E.01644
G1 X176.572 Y67.487 E.02012
G1 X175.987 Y67.985 E.02411
G1 X175.289 Y68.317 E.02422
G1 X174.529 Y68.458 E.02424
G1 X174.005 Y68.439 E.01644
G1 X173.381 Y68.291 E.0201
G1 X172.801 Y68.009 E.02023
G1 X172.386 Y67.696 E.01631
G1 X172.035 Y67.317 E.01618
G1 X171.798 Y66.96 E.01343
G1 X171.521 Y66.291 E.02271
G1 X171.436 Y65.863 E.01368
G1 X171.436 Y65.139 E.02271
G1 X171.519 Y64.715 E.01356
G1 X171.738 Y64.151 E.01894
G1 X172.175 Y63.518 E.02412
G1 X172.559 Y63.161 E.01644
G1 X172.912 Y62.926 E.0133
G1 X173.465 Y62.682 E.01894
G1 X174.221 Y62.543 E.02412
G1 X174.745 Y62.562 E.01643
G1 X174.846 Y62.586 E.00326
M204 S1000
G1 X175.164 Y62.296 F10800
;WIPE_START
G1 F8640
G1 X175.368 Y62.71 E-.12402
G1 X175.949 Y62.992 E-.14901
G1 X176.364 Y63.306 E-.12011
G1 X176.715 Y63.684 E-.11917
G1 X177.05 Y64.23 E-.14803
G1 X177.192 Y64.638 E-.09966
;WIPE_END
G1 E-.04 F2100
G1 Z.6 F720
G1 X84.857 Y134.829 F10800
G1 Z.2 F720
G1 E.8 F2100
M204 S800
;TYPE:Perimeter
G1 F1200
G1 X84.841 Y134.785 E.00145
G1 X84.838 Y133.617 E.03662
G1 X84.838 Y75.279 E1.82914
G1 X84.902 Y75.018 E.00843
M73 P1 R127
G1 X85.08 Y74.815 E.00844
G1 X85.34 Y74.717 E.00874
G1 X97.482 Y74.713 E.38071
G1 X97.621 Y74.402 E.0107
G1 X97.842 Y74.07 E.01249
G1 X98.128 Y73.775 E.01288
G1 X98.525 Y73.497 E.0152
G1 X98.89 Y73.336 E.0125
G1 X99.277 Y73.242 E.01249
G1 X99.674 Y73.216 E.01249
G1 X100.082 Y73.262 E.01288
G1 X100.545 Y73.408 E.01521
G1 X100.894 Y73.6 E.01249
G1 X101.205 Y73.849 E.01249
G1 X101.468 Y74.149 E.01249
G1 X101.625 Y74.395 E.00917
G1 X101.842 Y74.07 E.01225
G1 X102.118 Y73.783 E.01249
G1 X102.439 Y73.547 E.01249
G1 X102.796 Y73.371 E.01249
G1 X103.179 Y73.259 E.01249
G1 X103.575 Y73.216 E.01249
G1 X103.984 Y73.244 E.01288
G1 X104.453 Y73.37 E.0152
G1 X104.81 Y73.546 E.0125
G1 X105.132 Y73.782 E.01249
G1 X105.414 Y74.08 E.01288
G1 X105.675 Y74.489 E.0152
G1 X105.768 Y74.713 E.00762
G1 X164.596 Y74.713 E1.84454
G1 X164.879 Y74.789 E.00918
G1 X165.08 Y74.985 E.00878
G1 X165.159 Y75.216 E.00765
G1 X165.162 Y76.384 E.03662
G1 X165.162 Y134.722 E1.82914
G1 X165.109 Y134.961 E.00769
G1 X164.921 Y135.185 E.00918
G1 X164.66 Y135.284 E.00875
G1 X163.492 Y135.288 E.03662
G1 X85.404 Y135.288 E2.44839
G1 X85.142 Y135.224 E.00843
G1 X84.933 Y135.036 E.00881
G1 X84.878 Y134.885 E.00505
M204 S1000
G1 X85.215 Y134.722 F10800
M204 S800
;TYPE:External perimeter
G1 F1200
G1 X85.215 Y75.279 E1.86379
G1 X85.284 Y75.133 E.00506
G1 X85.404 Y75.091 E.00398
G1 X97.767 Y75.091 E.38766
G1 X97.939 Y74.604 E.01617
G1 X98.12 Y74.325 E.01044
G1 X98.351 Y74.079 E.01057
G1 X98.684 Y73.839 E.01289
G1 X98.987 Y73.701 E.01044
G1 X99.31 Y73.617 E.01044
G1 X99.641 Y73.591 E.01044
G1 X99.977 Y73.624 E.01057
G1 X100.371 Y73.743 E.0129
G1 X100.665 Y73.899 E.01043
G1 X100.927 Y74.104 E.01044
G1 X101.15 Y74.351 E.01044
G1 X101.326 Y74.633 E.01044
G1 X101.483 Y75.091 E.01515
G1 X101.767 Y75.091 E.00892
G1 X101.939 Y74.604 E.01617
G1 X102.12 Y74.325 E.01044
G1 X102.347 Y74.082 E.01044
G1 X102.613 Y73.881 E.01044
G1 X102.909 Y73.73 E.01043
G1 X103.228 Y73.633 E.01044
G1 X103.558 Y73.592 E.01044
G1 X103.895 Y73.611 E.01057
G1 X104.293 Y73.712 E.01289
G1 X104.594 Y73.855 E.01044
G1 X104.865 Y74.048 E.01044
G1 X105.101 Y74.289 E.01057
G1 X105.326 Y74.633 E.01289
G1 X105.483 Y75.091 E.01516
G1 X164.596 Y75.091 E1.85347
G1 X164.742 Y75.16 E.00506
G1 X164.785 Y75.279 E.00398
G1 X164.785 Y134.722 E1.86379
G1 X164.716 Y134.868 E.00506
G1 X164.596 Y134.911 E.00398
G1 X85.404 Y134.911 E2.48303
G1 X85.258 Y134.842 E.00506
M73 Q1 S128
G1 X85.235 Y134.779 E.0021
M204 S1000
G1 X84.829 Y134.619 F10800
;WIPE_START
G1 F8640
G1 X85.234 Y131.487 E-.76
;WIPE_END
G1 E-.04 F2100
G1 Z.6 F720
G1 X75.472 Y62.173 F10800
G1 Z.2 F720
G1 E.8 F2100
M204 S800
;TYPE:Perimeter
G1 F1200
G1 X76.011 Y62.185 E.01691
G1 X76.708 Y62.344 E.02242
G1 X77.251 Y62.585 E.01862
G1 X77.713 Y62.899 E.01753
G1 X78.226 Y63.412 E.02271
G1 X78.623 Y64.035 E.02317
G1 X78.869 Y64.718 E.02278
G1 X78.957 Y65.306 E.01862
G1 X78.925 Y65.996 E.02168
G1 X78.782 Y66.582 E.01889
G1 X78.541 Y67.126 E.01867
G1 X78.128 Y67.708 E.02235
G1 X77.696 Y68.118 E.01868
G1 X77.091 Y68.498 E.02242
G1 X76.409 Y68.744 E.02271
G1 X75.821 Y68.833 E.01867
G1 X75.106 Y68.797 E.02243
G1 X74.53 Y68.654 E.01861
G1 X73.884 Y68.348 E.02242
G1 X73.406 Y67.995 E.01862
G1 X73.007 Y67.572 E.01824
G1 X72.7 Y67.104 E.01753
G1 X72.423 Y66.436 E.0227
G1 X72.294 Y65.708 E.02316
G1 X72.328 Y64.982 E.0228
G1 X72.472 Y64.405 E.01862
G1 X72.71 Y63.875 E.01824
G1 X73.015 Y63.421 E.01716
G1 X73.433 Y62.984 E.01894
G1 X74.148 Y62.509 E.02693
G1 X74.692 Y62.298 E.0183
G1 X75.412 Y62.172 E.02291
M204 S1000
G1 X75.584 Y62.547 F10800
M204 S800
;TYPE:External perimeter
G1 F1200
G1 X75.995 Y62.562 E.0129
G1 X76.619 Y62.711 E.02011
G1 X77.092 Y62.927 E.01631
G1 X77.447 Y63.166 E.01343
G1 X77.959 Y63.678 E.02271
G1 X78.3 Y64.23 E.02035
G1 X78.512 Y64.84 E.02022
G1 X78.585 Y65.388 E.01734
G1 X78.559 Y65.907 E.0163
