; generated by PrusaSlicer 2.5.0+win64 on 2023-09-28 at 20:08:59 UTC


;
;
; 

; external perimeters extrusion width = 0.60mm
; perimeters extrusion width = 0.50mm
; infill extrusion width = 0.50mm
; solid infill extrusion width = 0.50mm
; top infill extrusion width = 0.45mm
; support material extrusion width = 0.38mm
; first layer extrusion width = 0.42mm

M73 P0 R227
M73 Q0 S231
M201 X1000 Y1000 Z200 E5000 ; sets maximum accelerations, mm/sec^2
M203 X200 Y200 Z12 E120 ; sets maximum feedrates, mm / sec
M204 P1250 R1250 T1250 ; sets acceleration (P, T) and retract acceleration (R), mm/sec^2
M205 X8.00 Y8.00 Z0.40 E4.50 ; sets the jerk limits, mm/sec
M205 S0 T0 ; sets the minimum extruding and travel feed rate, mm/sec
M107
;TYPE:Custom
M862.3 P "MK3S" ; printer model check
M862.1 P0.4 ; nozzle diameter check
M115 U3.11.0 ; tell printer latest fw version
G90 ; use absolute coordinates
M83 ; extruder relative mode
M104 S215 ; set extruder temp
M140 S60 ; set bed temp
M190 S60 ; wait for bed temp
M109 S215 ; wait for extruder temp
G28 W ; home all without mesh bed level
G80 ; mesh bed leveling

G1 Z0.2 F720
G1 Y-3 F1000 ; go outside print area
G92 E0
G1 X60 E9 F1000 ; intro line
G1 X100 E12.5 F1000 ; intro line

G92 E0
M221 S95

; Don't change E values below. Excessive value can damage the printer.

M907 E538 ; set extruder motor current
G21 ; set units to millimeters
G90 ; use absolute coordinates
M83 ; use relative distances for extrusion
M900 K0.05 ; Filament gcode LA 1.5
M900 K30 ; Filament gcode LA 1.0
M107
;LAYER_CHANGE
;Z:0.2
;HEIGHT:0.2
;BEFORE_LAYER_CHANGE
G92 E0.0
;0.2


G1 E-.8 F2100
G1 Z.4 F720
;AFTER_LAYER_CHANGE
;0.2
G1 X35.793 Y30.103 F10800
G1 Z.2 F720
G1 E.8 F2100
M204 S800
;TYPE:Skirt/Brim
;WIDTH:0.42
G1 F1200
G1 X49.959 Y15.985 E.62709
G1 X51.641 Y15.292 E.05704
M73 Q0 S230
G1 X193.062 Y15.531 E4.43417
G1 X194.742 Y16.23 E.05704
G1 X208.86 Y30.397 E.62709
G1 X209.505 Y31.599 E.04278
G1 X209.528 Y32.42 E.02575
G1 X186.825 Y187.06 E4.90061
G1 X186.5 Y188.646 E.05076
G1 X186.012 Y190.076 E.0474
G1 X185.301 Y191.527 E.05065
G1 X184.666 Y192.522 E.03699
G1 X183.711 Y193.71 E.0478
G1 X182.871 Y194.546 E.03716
G1 X181.689 Y195.492 E.04746
G1 X180.311 Y196.333 E.05064
G1 X179.239 Y196.832 E.03708
M73 P0 R226
G1 X177.797 Y197.319 E.0477
G1 X176.212 Y197.639 E.05071
G1 X175.033 Y197.74 E.0371
G1 X69.491 Y197.571 E3.3092
G1 X67.446 Y197.388 E.06436
G1 X65.773 Y196.976 E.05404
G1 X63.886 Y196.192 E.06407
G1 X62.411 Y195.294 E.05414
G1 X61.554 Y194.63 E.03399
G1 X60.46 Y193.579 E.04757
G1 X59.701 Y192.671 E.03711
G1 X59.088 Y191.785 E.03379
G1 X58.361 Y190.454 E.04754
G1 X57.945 Y189.458 E.03384
G1 X57.617 Y188.428 E.0339
G1 X57.364 Y187.278 E.03691
G1 X35.118 Y32.124 E4.91449
G1 X35.32 Y30.775 E.04278
G1 X35.759 Y30.152 E.02387
M204 S1000
; printing object wheel holder.stl id:0 copy 0
;WIPE_START
G1 F8640
G1 X38.089 Y27.828 E-.76
;WIPE_END
G1 E-.04 F2100
G1 Z.6 F720
G1 X132.293 Y184.731 F10800
G1 Z.2 F720
G1 E.8 F2100
M204 S800
;TYPE:Support material
G1 F1200
G1 X110.017 Y184.693 E.69846
G1 X110.017 Y171.337 E.41875
G1 X132.293 Y171.337 E.69846
G1 X132.293 Y184.674 E.41816
M204 S1000
G1 X131.541 Y184.56 F10800
M204 S800
G1 F1200
G1 X131.541 Y171.677 E.40394
G1 X131.122 Y171.677 E.01314
G1 X131.122 Y184.389 E.39859
G1 X130.703 Y184.389 E.01314
G1 X130.703 Y171.677 E.39857
G1 X130.284 Y171.677 E.01314
G1 X130.284 Y184.388 E.39855
G1 X129.865 Y184.387 E.01314
G1 X129.865 Y171.677 E.39853
G1 X129.446 Y171.677 E.01314
G1 X129.446 Y184.386 E.3985
G1 X129.027 Y184.386 E.01314
G1 X129.027 Y171.677 E.39848
G1 X128.608 Y171.677 E.01314
G1 X128.608 Y184.385 E.39846
G1 X128.189 Y184.384 E.01314
G1 X128.189 Y171.677 E.39844
G1 X127.77 Y171.677 E.01314
G1 X127.77 Y184.384 E.39842
G1 X127.351 Y184.383 E.01314
G1 X127.351 Y171.677 E.39839
G1 X126.933 Y171.677 E.01314
G1 X126.933 Y184.382 E.39837
G1 X126.514 Y184.381 E.01314
G1 X126.514 Y171.677 E.39835
G1 X126.095 Y171.677 E.01314
G1 X126.095 Y184.381 E.39833
G1 X125.676 Y184.38 E.01314
G1 X125.676 Y171.677 E.3983
G1 X125.257 Y171.677 E.01314
G1 X125.257 Y184.379 E.39828
G1 X124.838 Y184.379 E.01314
G1 X124.838 Y171.677 E.39826
G1 X124.419 Y171.677 E.01314
G1 X124.419 Y184.378 E.39824
G1 X124 Y184.377 E.01314
G1 X124 Y171.677 E.39821
G1 X123.581 Y171.677 E.01314
G1 X123.581 Y184.377 E.39819
G1 X123.162 Y184.376 E.01314
G1 X123.162 Y171.677 E.39817
G1 X122.743 Y171.677 E.01314
G1 X122.743 Y184.375 E.39815
G1 X122.324 Y184.374 E.01314
G1 X122.324 Y171.677 E.39813
G1 X121.905 Y171.677 E.01314
G1 X121.905 Y184.374 E.3981
G1 X121.486 Y184.373 E.01314
G1 X121.486 Y171.677 E.39808
G1 X121.067 Y171.677 E.01314
G1 X121.067 Y184.372 E.39806
G1 X120.648 Y184.372 E.01314
G1 X120.648 Y171.677 E.39804
G1 X120.229 Y171.677 E.01314
G1 X120.229 Y184.371 E.39801
G1 X119.81 Y184.37 E.01314
G1 X119.81 Y171.677 E.39799
G1 X119.391 Y171.677 E.01314
G1 X119.391 Y184.369 E.39797
G1 X118.972 Y184.369 E.01314
G1 X118.972 Y171.677 E.39795
G1 X118.553 Y171.677 E.01314
G1 X118.553 Y184.368 E.39793
G1 X118.134 Y184.367 E.01314
G1 X118.134 Y171.677 E.3979
G1 X117.715 Y171.677 E.01314
G1 X117.715 Y184.367 E.39788
G1 X117.296 Y184.366 E.01314
G1 X117.296 Y171.677 E.39786
G1 X116.877 Y171.677 E.01314
M73 Q0 S229
G1 X116.877 Y184.365 E.39784
G1 X116.458 Y184.364 E.01314
G1 X116.458 Y171.677 E.39781
G1 X116.039 Y171.677 E.01314
G1 X116.039 Y184.364 E.39779
G1 X115.62 Y184.363 E.01314
G1 X115.62 Y171.677 E.39777
G1 X115.201 Y171.677 E.01314
G1 X115.201 Y184.362 E.39775
G1 X114.782 Y184.362 E.01314
G1 X114.782 Y171.677 E.39772
G1 X114.363 Y171.677 E.01314
G1 X114.363 Y184.361 E.3977
G1 X113.944 Y184.36 E.01314
G1 X113.944 Y171.677 E.39768
G1 X113.525 Y171.677 E.01314
G1 X113.525 Y184.359 E.39766
G1 X113.106 Y184.359 E.01314
G1 X113.106 Y171.677 E.39764
G1 X112.687 Y171.677 E.01314
G1 X112.687 Y184.358 E.39761
G1 X112.268 Y184.357 E.01314
G1 X112.268 Y171.677 E.39759
G1 X111.849 Y171.677 E.01314
G1 X111.849 Y184.357 E.39757
G1 X111.43 Y184.356 E.01314
G1 X111.43 Y171.677 E.39755
G1 X111.011 Y171.677 E.01314
G1 X111.011 Y184.355 E.39752
G1 X110.592 Y184.355 E.01314
G1 X110.592 Y171.507 E.40282
M204 S1000
;WIPE_START
G1 F8640
G1 X110.592 Y174.798 E-.76
;WIPE_END
G1 E-.04 F2100
G1 Z.6 F720
G1 X193.547 Y29.135 F10800
G1 Z.2 F720
G1 E.8 F2100
M204 S800
;TYPE:External perimeter
;WIDTH:0.419999
G1 F1200
G1 X194.036 Y29.263 E.01585
G1 X194.613 Y29.544 E.02012
G1 X195.027 Y29.859 E.01631
G1 X195.377 Y30.238 E.01618
G1 X195.712 Y30.785 E.0201
G1 X195.923 Y31.395 E.02023
G1 X195.995 Y31.939 E.01722
G1 X195.954 Y32.55 E.01919
G1 X195.822 Y33.053 E.0163
G1 X195.647 Y33.444 E.01343
G1 X195.231 Y34.036 E.02271
G1 X194.746 Y34.468 E.02036
G1 X194.297 Y34.73 E.01629
G1 X193.69 Y34.939 E.02011
G1 X193.175 Y35.009 E.0163
G1 X192.747 Y34.998 E.01343
G1 X192.04 Y34.84 E.02271
G1 X191.641 Y34.664 E.01369
G1 X191.048 Y34.247 E.02272
G1 X190.547 Y33.658 E.02425
G1 X190.216 Y32.96 E.02422
G1 X190.077 Y32.2 E.02424
G1 X190.087 Y31.763 E.01368
G1 X190.245 Y31.056 E.02271
G1 X190.421 Y30.657 E.01369
G1 X190.838 Y30.064 E.02271
G1 X191.153 Y29.763 E.01368
G1 X191.765 Y29.375 E.02271
G1 X192.172 Y29.218 E.01368
G1 X192.885 Y29.093 E.0227
G1 X193.488 Y29.128 E.01893
M204 S1000
;WIPE_START
G1 F8640
G1 X194.036 Y29.263 E-.13037
G1 X194.613 Y29.544 E-.14814
G1 X195.027 Y29.859 E-.1201
G1 X195.377 Y30.238 E-.11917
G1 X195.712 Y30.785 E-.14802
G1 X195.845 Y31.17 E-.0942
;WIPE_END
G1 E-.04 F2100
G1 Z.6 F720
G1 X153.46 Y74.043 F10800
G1 Z.2 F720
G1 E.8 F2100
M204 S800
G1 F1200
G1 X153.494 Y74.261 E.00691
G1 X153.431 Y75.027 E.02411
G1 X153.172 Y75.755 E.02422
G1 X152.733 Y76.391 E.02423
G1 X152.247 Y76.822 E.02037
G1 X151.798 Y77.085 E.01631
G1 X151.314 Y77.263 E.01618
G1 X150.681 Y77.363 E.0201
G1 X150.037 Y77.324 E.02023
G1 X149.534 Y77.192 E.01631
G1 X149.065 Y76.976 E.01618
G1 X148.71 Y76.736 E.01343
G1 X148.199 Y76.223 E.02271
G1 X147.959 Y75.864 E.01356
G1 X147.709 Y75.29 E.01962
G1 X147.579 Y74.554 E.02344
G1 X147.589 Y74.118 E.01369
G1 X147.747 Y73.411 E.02271
G1 X147.965 Y72.934 E.01644
G1 X148.202 Y72.582 E.0133
G1 X148.62 Y72.146 E.01894
G1 X149.266 Y71.73 E.02411
G1 X149.88 Y71.517 E.02037
G1 X150.395 Y71.446 E.0163
G1 X150.823 Y71.458 E.01343
G1 X151.53 Y71.616 E.0227
G1 X152.115 Y71.899 E.02037
G1 X152.529 Y72.213 E.01631
G1 X152.879 Y72.592 E.01617
G1 X153.214 Y73.139 E.02011
G1 X153.394 Y73.627 E.01629
G1 X153.451 Y73.983 E.01132
M204 S1000
;WIPE_START
G1 F8640
G1 X153.494 Y74.261 E-.06478
G1 X153.431 Y75.027 E-.17759
G1 X153.172 Y75.755 E-.17839
G1 X152.733 Y76.391 E-.17844
G1 X152.247 Y76.822 E-.14999
G1 X152.207 Y76.846 E-.01082
;WIPE_END
G1 E-.04 F2100
G1 Z.6 F720
G1 X164.943 Y115.728 F10800
G1 Z.2 F720
G1 E.8 F2100
M204 S800
G1 F1200
G1 X164.83 Y115.766 E.00375
G1 X145.96 Y115.734 E.59164
G1 X145.827 Y115.678 E.00455
G1 X145.772 Y115.545 E.0045
G1 X145.787 Y106.874 E.27187
G1 X145.842 Y106.741 E.00452
M73 P0 R225
G1 X151.144 Y101.457 E.23468
G1 X151.276 Y101.402 E.0045
G1 X151.41 Y101.458 E.00455
G1 X165.077 Y115.171 E.60704
G1 X165.132 Y115.305 E.00456
G1 X165.125 Y115.355 E.00157
G1 X164.969 Y115.674 E.01113
M204 S1000
;WIPE_START
G1 F8640
G1 X164.83 Y115.766 E-.03857
G1 X161.705 Y115.76 E-.72143
;WIPE_END
G1 E-.04 F2100
G1 Z.6 F720
G1 X119.152 Y112.915 F10800
G1 Z.2 F720
G1 E.8 F2100
M204 S800
G1 F1200
G1 X119.276 Y112.869 E.00415
G1 X125.68 Y112.879 E.20079
G1 X125.822 Y112.944 E.00488
G1 X125.868 Y113.068 E.00416
G1 X125.862 Y117.011 E.12363
G1 X125.803 Y117.148 E.00466
G1 X125.673 Y117.199 E.00439
G1 X119.269 Y117.188 E.20079
G1 X119.196 Y117.174 E.00232
G1 X119.092 Y117.064 E.00475
G1 X119.08 Y117 E.00205
G1 X119.087 Y113.057 E.12363
G1 X119.127 Y112.969 E.00301
M204 S1000
;WIPE_START
G1 F8640
G1 X119.276 Y112.869 E-.04152
G1 X122.388 Y112.874 E-.71848
;WIPE_END
G1 E-.04 F2100
G1 Z.6 F720
G1 X79.233 Y115.16 F10800
G1 Z.2 F720
G1 E.8 F2100
M204 S800
G1 F1200
G1 X79.288 Y115.025 E.00456
G1 X93.002 Y101.359 E.60704
G1 X93.136 Y101.304 E.00455
G1 X93.186 Y101.31 E.00157
G1 X93.582 Y101.674 E.01688
G1 X98.552 Y106.66 E.22072
G1 X98.607 Y106.794 E.00452
G1 X98.592 Y115.465 E.27187
G1 X98.537 Y115.598 E.0045
G1 X98.403 Y115.653 E.00455
G1 X79.534 Y115.621 E.59164
G1 X79.4 Y115.565 E.00456
G1 X79.256 Y115.215 E.01186
M204 S1000
;WIPE_START
G1 F8640
G1 X79.288 Y115.025 E-.04446
G1 X81.483 Y112.838 E-.71554
;WIPE_END
G1 E-.04 F2100
G1 Z.6 F720
G1 X150.854 Y87.628 F10800
G1 Z.2 F720
G1 E.8 F2100
M204 S800
G1 F1200
G1 X150.8 Y87.741 E.00395
G1 X150.854 Y87.894 E.00509
G1 X181.732 Y118.889 E1.37179
G1 X182.243 Y119.495 E.02485
G1 X182.701 Y120.138 E.02475
G1 X183.289 Y121.177 E.03744
G1 X183.605 Y121.901 E.02478
G1 X183.861 Y122.652 E.02486
G1 X184.054 Y123.42 E.02485
G1 X184.184 Y124.202 E.02485
G1 X184.236 Y124.851 E.02042
G1 X184.255 Y125.393 E.01699
G1 X184.144 Y185.807 E1.89424
G1 X184.07 Y186.637 E.02612
G1 X183.822 Y187.87 E.03945
G1 X183.416 Y189.059 E.03939
G1 X183.063 Y189.815 E.02617
G1 X182.644 Y190.537 E.02617
G1 X181.899 Y191.549 E.03939
G1 X181.029 Y192.455 E.03939
G1 X180.389 Y192.99 E.02617
G1 X179.703 Y193.469 E.02623
G1 X178.977 Y193.886 E.02623
G1 X178.219 Y194.238 E.02623
G1 X177.432 Y194.523 E.02623
G1 X176.625 Y194.738 E.02618
G1 X175.799 Y194.882 E.02628
G1 X175.113 Y194.941 E.0216
G1 X174.543 Y194.962 E.01788
G1 X69.554 Y194.784 E3.29185
G1 X68.714 Y194.746 E.02638
G1 X67.471 Y194.553 E.03945
G1 X66.668 Y194.336 E.02606
G1 X65.495 Y193.878 E.03951
G1 X64.755 Y193.491 E.02617
G1 X64.05 Y193.041 E.02622
G1 X63.389 Y192.531 E.02618
G1 X62.773 Y191.965 E.02623
G1 X61.945 Y191.018 E.03945
G1 X61.467 Y190.333 E.02617
G1 X61.05 Y189.608 E.02623
G1 X60.698 Y188.849 E.02624
G1 X60.413 Y188.063 E.02621
G1 X60.198 Y187.254 E.02624
G1 X60.054 Y186.43 E.02623
G1 X59.983 Y185.596 E.02623
G1 X60.076 Y125.187 E1.8941
G1 X60.16 Y123.925 E.03966
G1 X60.307 Y123.103 E.02617
G1 X60.524 Y122.297 E.02617
G1 X60.982 Y121.127 E.0394
G1 X61.369 Y120.385 E.02622
G1 X61.82 Y119.681 E.02623
G1 X62.241 Y119.134 E.02164
G1 X62.605 Y118.705 E.01763
G1 X93.605 Y87.797 E1.37255
G1 X93.659 Y87.684 E.00394
G1 X93.605 Y87.531 E.0051
G1 X38.051 Y31.788 E2.46754
G1 X51.636 Y18.249 E.60137
G1 X122.094 Y88.945 E3.12951
G1 X122.207 Y89 E.00393
G1 X122.358 Y88.948 E.00501
G1 X193.057 Y18.488 E3.12962
G1 X206.597 Y32.074 E.60137
G1 X150.896 Y87.585 E2.46566
M204 S1000
;WIPE_START
G1 F8640
M73 Q0 S228
G1 X150.8 Y87.741 E-.04237
G1 X150.854 Y87.894 E-.03748
G1 X152.932 Y89.981 E-.68015
;WIPE_END
G1 E-.04 F2100
G1 Z.6 F720
G1 X96.994 Y74.335 F10800
G1 Z.2 F720
G1 E.8 F2100
M204 S800
G1 F1200
G1 X96.977 Y74.755 E.01319
G1 X96.827 Y75.378 E.0201
G1 X96.545 Y75.959 E.02023
G1 X96.23 Y76.373 E.01629
G1 X95.75 Y76.798 E.02011
G1 X95.301 Y77.06 E.01631
G1 X94.816 Y77.239 E.01618
G1 X94.4 Y77.32 E.0133
G1 X93.796 Y77.332 E.01894
G1 X93.044 Y77.17 E.02412
G1 X92.568 Y76.952 E.01643
G1 X92.049 Y76.574 E.02011
G1 X91.696 Y76.193 E.01629
G1 X91.361 Y75.646 E.02011
G1 X91.18 Y75.158 E.0163
G1 X91.099 Y74.742 E.0133
G1 X91.087 Y74.138 E.01894
G1 X91.249 Y73.386 E.02412
G1 X91.467 Y72.91 E.01643
G1 X91.845 Y72.391 E.02011
G1 X92.226 Y72.038 E.01629
G1 X92.773 Y71.703 E.0201
G1 X93.383 Y71.492 E.02023
G1 X93.897 Y71.422 E.01629
G1 X94.538 Y71.461 E.02011
G1 X95.041 Y71.593 E.0163
G1 X95.432 Y71.767 E.01343
G1 X96.025 Y72.184 E.02271
G1 X96.456 Y72.669 E.02036
G1 X96.718 Y73.118 E.01629
G1 X96.927 Y73.724 E.02011
G1 X96.996 Y74.275 E.01739
M204 S1000
;WIPE_START
G1 F8640
G1 X96.977 Y74.755 E-.11101
G1 X96.827 Y75.378 E-.14802
G1 X96.545 Y75.959 E-.14902
G1 X96.23 Y76.373 E-.12
G1 X95.75 Y76.798 E-.14813
G1 X95.436 Y76.981 E-.08382
;WIPE_END
G1 E-.04 F2100
G1 Z.6 F720
G1 X48.706 Y31.308 F10800
G1 Z.2 F720
G1 E.8 F2100
M204 S800
G1 F1200
G1 X48.825 Y30.813 E.01596
G1 X49.107 Y30.232 E.02024
G1 X49.422 Y29.818 E.01631
G1 X49.801 Y29.468 E.01617
G1 X50.347 Y29.133 E.0201
G1 X50.957 Y28.923 E.02023
G1 X51.472 Y28.852 E.0163
G1 X51.901 Y28.864 E.01343
G1 X52.607 Y29.021 E.02271
G1 X53.007 Y29.198 E.01369
G1 X53.599 Y29.614 E.02271
G1 X54.031 Y30.1 E.02036
G1 X54.293 Y30.548 E.01629
G1 X54.501 Y31.155 E.02011
G1 X54.572 Y31.67 E.0163
G1 X54.56 Y32.098 E.01343
G1 X54.403 Y32.805 E.02271
G1 X54.226 Y33.204 E.01368
G1 X53.81 Y33.797 E.02272
G1 X53.221 Y34.298 E.02425
G1 X52.523 Y34.629 E.02422
G1 X51.762 Y34.768 E.02424
G1 X51.326 Y34.758 E.01368
G1 X50.619 Y34.6 E.02271
G1 X50.22 Y34.424 E.01368
G1 X49.627 Y34.007 E.02271
G1 X49.326 Y33.692 E.01368
G1 X48.938 Y33.08 E.02271
G1 X48.78 Y32.673 E.01368
G1 X48.656 Y31.96 E.02271
G1 X48.675 Y31.436 E.01643
G1 X48.692 Y31.366 E.00226
M204 S1000
;WIPE_START
G1 F8640
G1 X48.825 Y30.813 E-.13139
G1 X49.107 Y30.232 E-.14902
G1 X49.422 Y29.818 E-.1201
G1 X49.801 Y29.468 E-.11911
G1 X50.347 Y29.133 E-.14802
G1 X50.725 Y29.003 E-.09236
;WIPE_END
G1 E-.04 F2100
G1 Z.6 F720
G1 X175.076 Y125.152 F10800
G1 Z.2 F720
G1 E.8 F2100
M204 S800
G1 F1200
G1 X174.973 Y185.594 E1.89514
G1 X174.906 Y185.739 E.005
M73 P1 R225
M73 Q1 S228
G1 X174.802 Y185.782 E.00354
G1 X174.509 Y185.782 E.00919
G1 X69.342 Y185.604 E3.29743
G1 X69.2 Y185.54 E.00488
G1 X69.154 Y185.411 E.00427
G1 X69.256 Y124.972 E1.89503
G1 X69.311 Y124.839 E.00452
M73 P1 R224
G1 X69.445 Y124.784 E.00453
G1 X174.888 Y124.963 E3.30608
G1 X175.031 Y125.03 E.00497
G1 X175.055 Y125.095 E.00219
M204 S1000
;WIPE_START
G1 F8640
G1 X175.051 Y128.387 E-.76
;WIPE_END
G1 E-.04 F2100
G1 Z.6 F720
G1 X206.072 Y32.437 F10800
G1 Z.2 F720
G1 E.8 F2100
M204 S800
;TYPE:Solid infill
;WIDTH:0.420077
G1 F1200
G1 X192.79 Y19.154 E.58908
G1 X192.523 Y19.421 E.01183
G1 X205.685 Y32.583 E.58376
G1 X205.418 Y32.849 E.01183
G1 X192.255 Y19.687 E.58376
G1 X191.988 Y19.953 E.01183
G1 X205.151 Y33.115 E.58376
G1 X204.883 Y33.382 E.01183
G1 X191.721 Y20.219 E.58376
G1 X191.454 Y20.485 E.01183
G1 X204.616 Y33.648 E.58376
G1 X204.349 Y33.914 E.01183
G1 X191.187 Y20.752 E.58376
G1 X190.92 Y21.018 E.01183
G1 X204.082 Y34.18 E.58376
G1 X203.815 Y34.447 E.01183
G1 X190.653 Y21.284 E.58376
G1 X190.385 Y21.55 E.01183
G1 X203.548 Y34.713 E.58376
G1 X203.281 Y34.979 E.01183
G1 X190.118 Y21.817 E.58376
