; generated by PrusaSlicer 2.5.0+win64 on 2023-09-23 at 21:49:25 UTC


;
;
; 

; external perimeters extrusion width = 0.45mm
; perimeters extrusion width = 0.45mm
; infill extrusion width = 0.45mm
; solid infill extrusion width = 0.45mm
; top infill extrusion width = 0.40mm
; first layer extrusion width = 0.42mm

M73 P0 R88
M73 Q0 S90
M201 X1000 Y1000 Z200 E5000 ; sets maximum accelerations, mm/sec^2
M203 X200 Y200 Z12 E120 ; sets maximum feedrates, mm / sec
M204 P1250 R1250 T1250 ; sets acceleration (P, T) and retract acceleration (R), mm/sec^2
M205 X8.00 Y8.00 Z0.40 E4.50 ; sets the jerk limits, mm/sec
M205 S0 T0 ; sets the minimum extruding and travel feed rate, mm/sec
M107
;TYPE:Custom
M862.3 P "MK3S" ; printer model check
M862.1 P0.4 ; nozzle diameter check
M115 U3.11.0 ; tell printer latest fw version
G90 ; use absolute coordinates
M83 ; extruder relative mode
M104 S215 ; set extruder temp
M140 S60 ; set bed temp
M190 S60 ; wait for bed temp
M109 S215 ; wait for extruder temp
G28 W ; home all without mesh bed level
G80 ; mesh bed leveling

G1 Z0.2 F720
G1 Y-3 F1000 ; go outside print area
G92 E0
G1 X60 E9 F1000 ; intro line
G1 X100 E12.5 F1000 ; intro line

G92 E0
M221 S95

; Don't change E values below. Excessive value can damage the printer.

M907 E538 ; set extruder motor current
G21 ; set units to millimeters
G90 ; use absolute coordinates
M83 ; use relative distances for extrusion
M900 K0.05 ; Filament gcode LA 1.5
M900 K30 ; Filament gcode LA 1.0
M107
;LAYER_CHANGE
;Z:0.2
;HEIGHT:0.2
;BEFORE_LAYER_CHANGE
G92 E0.0
;0.2


G1 E-.8 F2100
G1 Z.4 F720
;AFTER_LAYER_CHANGE
;0.2
G1 X86.17 Y65.511 F10800
G1 Z.2 F720
G1 E.8 F2100
M204 S800
;TYPE:Skirt/Brim
;WIDTH:0.42
G1 F1200
G1 X91.549 Y60.756 E.22511
G1 X93.049 Y59.668 E.05809
G1 X97.459 Y57.073 E.16043
G1 X99.526 Y55.943 E.07388
G1 X101.738 Y54.856 E.07729
G1 X103.944 Y53.891 E.07547
G1 X106.093 Y53.057 E.07229
G1 X108.372 Y52.284 E.07547
G1 X110.585 Y51.636 E.07229
G1 X115.76 Y50.307 E.16751
G1 X117.366 Y50.062 E.05094
G1 X124.534 Y49.621 E.22518
G1 X125.59 Y49.797 E.03356
G1 X163.617 Y65.549 E1.29058
G1 X164.489 Y66.17 E.03356
G1 X169.244 Y71.549 E.22511
G1 X170.332 Y73.049 E.05809
G1 X172.927 Y77.459 E.16043
G1 X174.057 Y79.526 E.07388
G1 X175.098 Y81.64 E.07388
G1 X176.09 Y83.897 E.07729
G1 X176.943 Y86.093 E.07388
G1 X177.716 Y88.372 E.07547
G1 X178.364 Y90.585 E.07229
G1 X179.693 Y95.76 E.16751
G1 X179.938 Y97.366 E.05094
G1 X180.379 Y104.534 E.22518
G1 X180.203 Y105.59 E.03356
G1 X164.451 Y143.617 E1.29058
G1 X163.83 Y144.489 E.03356
G1 X158.451 Y149.244 E.22511
G1 X156.951 Y150.332 E.05809
G1 X152.541 Y152.927 E.16043
G1 X150.474 Y154.057 E.07388
G1 X148.36 Y155.098 E.07388
G1 X146.103 Y156.09 E.07729
G1 X143.907 Y156.943 E.07388
G1 X141.628 Y157.716 E.07547
G1 X139.415 Y158.364 E.07229
G1 X134.24 Y159.693 E.16751
G1 X132.634 Y159.938 E.05094
G1 X125.466 Y160.379 E.22518
G1 X124.41 Y160.203 E.03356
G1 X86.383 Y144.451 E1.29058
G1 X85.511 Y143.83 E.03356
G1 X80.756 Y138.451 E.22511
G1 X79.668 Y136.951 E.05809
G1 X77.073 Y132.541 E.16043
G1 X75.943 Y130.474 E.07388
G1 X74.902 Y128.36 E.07388
G1 X73.91 Y126.103 E.07729
G1 X73.057 Y123.907 E.07388
G1 X72.284 Y121.628 E.07547
G1 X71.636 Y119.415 E.07229
G1 X70.307 Y114.24 E.16751
G1 X70.062 Y112.634 E.05094
G1 X69.621 Y105.466 E.22518
G1 X69.797 Y104.41 E.03356
G1 X85.549 Y66.383 E1.29058
G1 X86.135 Y65.56 E.03167
M204 S1000
;WIPE_START
G1 F8640
G1 X88.597 Y63.375 E-.76
;WIPE_END
G1 E-.04 F2100
G1 Z.6 F720
G1 X88.895 Y67.148 F10800
G1 Z.2 F720
G1 E.8 F2100
M204 S800
G1 F1200
G1 X89.446 Y66.282 E.03216
G1 X91.387 Y64.525 E.08209
G1 X92.296 Y63.792 E.0366
G1 X93.234 Y62.825 E.04223
G1 X94.355 Y61.998 E.04371
G1 X95.666 Y61.329 E.04615
G1 X96.958 Y60.483 E.04841
G1 X98.784 Y59.383 E.06684
G1 X100.75 Y58.308 E.07027
G1 X102.807 Y57.296 E.07188
G1 X104.901 Y56.377 E.07169
G1 X106.992 Y55.564 E.07034
G1 X109.131 Y54.837 E.07084
G1 X111.282 Y54.206 E.07027
G1 X113.35 Y53.693 E.06684
G1 X114.862 Y53.378 E.04841
G1 X116.265 Y52.923 E.04623
G1 X117.708 Y52.711 E.04575
G1 X118.989 Y52.736 E.04016
G1 X120.159 Y52.611 E.0369
G1 X123.03 Y52.511 E.09008
G1 X123.867 Y52.74 E.0272
G1 X124.653 Y53.105 E.02718
G1 X125.879 Y54.143 E.05036
G1 X126.649 Y55.356 E.04506
G1 X126.963 Y56.373 E.03337
G1 X127.052 Y57.398 E.03225
G1 X126.831 Y58.703 E.04151
G1 X125.564 Y61.743 E.10324
G1 X124.926 Y62.666 E.03519
G1 X123.951 Y63.497 E.04017
G1 X124.057 Y64.159 E.02101
G1 X123.901 Y65.718 E.04915
G1 X122.176 Y69.939 E.14297
G1 X122.987 Y70.68 E.03443
G1 X124.546 Y71.975 E.06356
G1 X126.166 Y73.208 E.06382
G1 X127.836 Y74.369 E.06379
G1 X129.556 Y75.458 E.06381
G1 X131.32 Y76.472 E.06381
G1 X133.127 Y77.409 E.06381
G1 X134.971 Y78.268 E.0638
G1 X136.852 Y79.046 E.06381
G1 X138.763 Y79.744 E.06381
G1 X140.704 Y80.358 E.06382
G1 X142.668 Y80.889 E.0638
G1 X144.654 Y81.335 E.06381
G1 X146.657 Y81.695 E.0638
G1 X148.673 Y81.969 E.0638
G1 X150.696 Y82.156 E.06371
G1 X151.789 Y82.205 E.03428
G1 X153.553 Y78.001 E.14297
G1 X154.546 Y76.787 E.04915
G1 X155.073 Y76.406 E.0204
G1 X154.993 Y74.997 E.04425
G1 X155.222 Y73.908 E.03489
G1 X156.551 Y70.774 E.10673
G1 X157.32 Y69.778 E.03946
G1 X158.252 Y69.065 E.03679
G1 X159.357 Y68.596 E.03766
G1 X161.121 Y68.406 E.05564
G1 X161.946 Y68.555 E.02628
G1 X162.715 Y68.824 E.02553
G1 X164.063 Y69.752 E.05129
G1 X165.502 Y71.418 E.06903
G1 X166.208 Y72.296 E.03535
G1 X167.234 Y73.303 E.04505
G1 X168.069 Y74.465 E.0449
G1 X168.669 Y75.664 E.04202
G1 X169.518 Y76.959 E.04854
G1 X170.643 Y78.829 E.06844
G1 X171.731 Y80.826 E.07129
M73 Q0 S89
G1 X172.707 Y82.815 E.06949
G1 X173.62 Y84.894 E.07117
G1 X174.427 Y86.969 E.06983
G1 X175.146 Y89.077 E.06982
G1 X175.793 Y91.282 E.07205
G1 X176.307 Y93.35 E.06684
G1 X176.622 Y94.861 E.04837
G1 X177.046 Y96.136 E.04214
G1 X177.274 Y97.501 E.04341
G1 X177.263 Y98.984 E.04648
G1 X177.385 Y100.107 E.03544
G1 X177.543 Y102.26 E.06769
G1 X177.354 Y103.589 E.04206
G1 X176.832 Y104.751 E.03995
G1 X176.04 Y105.716 E.03914
G1 X174.896 Y106.525 E.04393
G1 X173.755 Y106.937 E.03804
G1 X172.561 Y107.047 E.03761
G1 X171.355 Y106.849 E.03831
G1 X168.169 Y105.522 E.1082
G1 X166.905 Y104.501 E.05096
G1 X166.505 Y103.951 E.02134
G1 X165.841 Y104.057 E.02107
G1 X164.282 Y103.901 E.04915
G1 X160.061 Y102.176 E.14297
G1 X159.32 Y102.987 E.03442
G1 X158.025 Y104.546 E.06356
G1 X156.8 Y106.155 E.06339
G1 X155.631 Y107.836 E.06423
G1 X154.542 Y109.556 E.0638
G1 X153.528 Y111.32 E.06381
G1 X152.591 Y113.127 E.06381
G1 X151.732 Y114.971 E.0638
G1 X150.954 Y116.852 E.06381
G1 X150.256 Y118.763 E.06381
G1 X149.642 Y120.704 E.06382
G1 X149.111 Y122.668 E.0638
G1 X148.665 Y124.654 E.06381
G1 X148.305 Y126.657 E.0638
G1 X148.031 Y128.673 E.0638
G1 X147.844 Y130.696 E.06371
G1 X147.795 Y131.789 E.03428
G1 X151.999 Y133.553 E.14297
G1 X153.213 Y134.546 E.04915
G1 X153.585 Y135.06 E.0199
G1 X154.965 Y134.991 E.04332
G1 X155.999 Y135.193 E.03306
G1 X159.133 Y136.498 E.10644
G1 X160.086 Y137.187 E.03686
G1 X160.824 Y138.073 E.03615
G1 X161.297 Y139.012 E.03297
M73 P0 R87
G1 X161.577 Y140.266 E.04028
G1 X161.484 Y141.792 E.04794
G1 X161.181 Y142.689 E.0297
G1 X160.728 Y143.501 E.02914
G1 X158.622 Y145.468 E.09036
G1 X157.706 Y146.207 E.0369
G1 X156.818 Y147.13 E.04016
G1 X155.647 Y148.001 E.04575
G1 X154.334 Y148.671 E.04623
G1 X153.041 Y149.518 E.04847
G1 X151.122 Y150.671 E.07019
G1 X149.203 Y151.716 E.06851
G1 X147.237 Y152.683 E.06871
G1 X145.084 Y153.629 E.07374
G1 X143 Y154.439 E.07008
G1 X140.869 Y155.163 E.07058
G1 X138.718 Y155.794 E.07027
G1 X136.65 Y156.307 E.06684
G1 X135.139 Y156.622 E.04837
G1 X133.864 Y157.046 E.04214
G1 X132.499 Y157.274 E.04341
G1 X131.016 Y157.263 E.04648
G1 X129.893 Y157.385 E.03544
G1 X127.74 Y157.543 E.06769
G1 X126.411 Y157.354 E.04206
G1 X125.249 Y156.832 E.03995
G1 X124.284 Y156.04 E.03914
G1 X123.475 Y154.896 E.04393
G1 X123.063 Y153.755 E.03804
G1 X122.953 Y152.561 E.03761
G1 X123.151 Y151.355 E.03831
G1 X124.478 Y148.169 E.1082
G1 X125.499 Y146.905 E.05096
G1 X126.049 Y146.505 E.02134
G1 X125.943 Y145.841 E.02107
G1 X126.099 Y144.282 E.04915
G1 X127.824 Y140.061 E.14297
G1 X127.013 Y139.32 E.03442
G1 X125.454 Y138.024 E.06359
G1 X123.836 Y136.794 E.06371
G1 X122.164 Y135.631 E.06388
G1 X120.445 Y134.542 E.0638
G1 X118.68 Y133.528 E.06381
G1 X116.873 Y132.591 E.06381
G1 X115.029 Y131.732 E.0638
G1 X113.148 Y130.954 E.06381
G1 X111.236 Y130.256 E.06381
G1 X109.296 Y129.642 E.06382
G1 X107.332 Y129.111 E.0638
G1 X105.346 Y128.665 E.06381
G1 X103.343 Y128.305 E.0638
G1 X101.327 Y128.031 E.0638
G1 X99.304 Y127.844 E.06371
G1 X98.211 Y127.795 E.03428
G1 X96.447 Y131.999 E.14297
G1 X95.454 Y133.213 E.04915
G1 X94.94 Y133.585 E.0199
G1 X95.009 Y134.965 E.04332
G1 X94.807 Y135.999 E.03306
G1 X93.502 Y139.133 E.10644
G1 X92.813 Y140.086 E.03686
G1 X91.927 Y140.824 E.03615
G1 X90.988 Y141.297 E.03297
G1 X89.734 Y141.577 E.04028
G1 X88.208 Y141.484 E.04794
G1 X87.311 Y141.181 E.0297
G1 X86.499 Y140.728 E.02914
G1 X84.532 Y138.622 E.09036
G1 X83.793 Y137.706 E.0369
G1 X82.87 Y136.818 E.04016
G1 X81.999 Y135.647 E.04575
G1 X81.329 Y134.334 E.04623
G1 X80.482 Y133.041 E.04846
G1 X79.329 Y131.122 E.07019
G1 X78.284 Y129.203 E.06851
G1 X77.317 Y127.237 E.06871
G1 X76.371 Y125.084 E.07374
G1 X75.561 Y123 E.07008
G1 X74.837 Y120.869 E.07058
G1 X74.206 Y118.718 E.07027
G1 X73.693 Y116.65 E.06684
G1 X73.378 Y115.139 E.04836
G1 X72.954 Y113.864 E.04214
G1 X72.726 Y112.499 E.04341
G1 X72.737 Y111.016 E.04648
G1 X72.615 Y109.893 E.03544
G1 X72.457 Y107.74 E.06769
G1 X72.646 Y106.411 E.04206
G1 X73.168 Y105.249 E.03995
G1 X73.96 Y104.284 E.03914
G1 X75.104 Y103.475 E.04393
G1 X76.245 Y103.063 E.03804
G1 X77.439 Y102.953 E.03761
G1 X78.645 Y103.151 E.03831
G1 X81.831 Y104.478 E.1082
G1 X83.095 Y105.499 E.05096
G1 X83.495 Y106.049 E.02134
G1 X84.159 Y105.943 E.02107
G1 X85.718 Y106.099 E.04915
G1 X89.939 Y107.824 E.14297
G1 X90.68 Y107.013 E.03442
G1 X91.975 Y105.454 E.06356
G1 X93.2 Y103.845 E.06339
G1 X94.369 Y102.164 E.06422
G1 X95.458 Y100.444 E.0638
G1 X96.472 Y98.68 E.0638
G1 X97.409 Y96.873 E.06381
G1 X98.268 Y95.029 E.0638
G1 X99.046 Y93.148 E.06381
G1 X99.744 Y91.236 E.06381
G1 X100.358 Y89.296 E.06382
G1 X100.889 Y87.332 E.0638
G1 X101.335 Y85.346 E.06381
G1 X101.695 Y83.343 E.0638
G1 X101.969 Y81.327 E.0638
G1 X102.156 Y79.304 E.06371
G1 X102.205 Y78.211 E.03428
G1 X98.001 Y76.447 E.14297
G1 X96.787 Y75.454 E.04915
G1 X96.415 Y74.94 E.0199
G1 X95.035 Y75.009 E.04332
G1 X94.001 Y74.807 E.03306
G1 X90.867 Y73.502 E.10642
G1 X89.88 Y72.781 E.03832
G1 X89.177 Y71.928 E.03469
G1 X88.704 Y70.989 E.03296
G1 X88.418 Y69.674 E.04219
G1 X88.549 Y68.062 E.0507
G1 X88.874 Y67.204 E.02878
M204 S1000
G1 X89.224 Y67.335 F10800
M204 S800
G1 F1200
G1 X89.719 Y66.544 E.02925
G1 X91.636 Y64.808 E.08108
G1 X92.55 Y64.071 E.03682
G1 X93.493 Y63.099 E.04246
G1 X94.566 Y62.311 E.04174
G1 X95.856 Y61.656 E.04535
G1 X97.155 Y60.804 E.04873
G1 X98.975 Y59.708 E.0666
G1 X100.928 Y58.641 E.06978
G1 X102.963 Y57.64 E.07111
G1 X105.041 Y56.727 E.07118
G1 X107.117 Y55.92 E.06983
G1 X109.241 Y55.198 E.07034
G1 X111.376 Y54.572 E.06977
G1 X113.438 Y54.059 E.0666
G1 X114.959 Y53.743 E.04873
G1 X116.336 Y53.294 E.0454
G1 X117.717 Y53.089 E.04377
G1 X119.005 Y53.114 E.04041
G1 X120.18 Y52.987 E.03704
G1 X122.96 Y52.882 E.08722
G1 X123.723 Y53.089 E.02479
G1 X124.471 Y53.437 E.02588
G1 X125.577 Y54.371 E.04539
G1 X126.297 Y55.494 E.04182
G1 X126.589 Y56.426 E.03065
G1 X126.674 Y57.406 E.03084
G1 X126.475 Y58.578 E.03726
G1 X125.223 Y61.58 E.10197
G1 X124.663 Y62.395 E.03103
G1 X123.542 Y63.35 E.04616
G1 X123.68 Y64.149 E.02543
G1 X123.542 Y65.602 E.04574
G1 X121.727 Y70.04 E.15034
G1 X122.739 Y70.964 E.04296
G1 X124.311 Y72.27 E.06409
G1 X125.944 Y73.513 E.06433
G1 X127.628 Y74.683 E.06429
G1 X129.361 Y75.781 E.06432
G1 X131.139 Y76.803 E.06431
G1 X132.96 Y77.747 E.06432
G1 X134.82 Y78.613 E.06431
G1 X136.715 Y79.398 E.06432
G1 X138.642 Y80.101 E.06431
G1 X140.598 Y80.72 E.06433
G1 X142.578 Y81.255 E.06431
G1 X144.579 Y81.705 E.06432
G1 X146.598 Y82.068 E.06431
G1 X148.63 Y82.344 E.06431
G1 X150.671 Y82.532 E.06424
G1 X152.034 Y82.594 E.0428
G1 X153.89 Y78.173 E.15034
G1 X154.819 Y77.048 E.04574
G1 X155.509 Y76.561 E.02647
G1 X155.446 Y76.332 E.00746
G1 X155.371 Y75.001 E.04179
G1 X155.576 Y74.039 E.03084
G1 X156.888 Y70.945 E.10538
G1 X157.601 Y70.03 E.03637
G1 X158.46 Y69.38 E.03378
G1 X159.427 Y68.967 E.03295
G1 X161.083 Y68.782 E.05224
G1 X161.836 Y68.916 E.02399
G1 X162.566 Y69.172 E.02426
G1 X163.793 Y70.016 E.04669
G1 X165.214 Y71.662 E.06817
G1 X165.929 Y72.55 E.03576
G1 X166.938 Y73.537 E.04424
G1 X167.739 Y74.648 E.04296
G1 X168.342 Y75.852 E.04223
G1 X169.197 Y77.156 E.04889
G1 X170.318 Y79.02 E.0682
G1 X171.394 Y80.995 E.07054
M73 P1 R87
G1 X172.364 Y82.97 E.06898
G1 X173.27 Y85.034 E.07066
G1 X174.072 Y87.095 E.06932
G1 X174.788 Y89.194 E.06957
G1 X175.428 Y91.376 E.0713
G1 X175.941 Y93.438 E.0666
G1 X176.257 Y94.959 E.04871
G1 X176.683 Y96.241 E.04236
G1 X176.899 Y97.546 E.0415
M73 Q1 S89
G1 X176.886 Y99.002 E.04564
G1 X177.009 Y100.138 E.03582
G1 X177.165 Y102.268 E.06697
G1 X176.998 Y103.461 E.03775
G1 X176.524 Y104.532 E.03674
G1 X175.765 Y105.456 E.0375
G1 X174.702 Y106.201 E.04071
G1 X173.652 Y106.573 E.0349
G1 X172.552 Y106.669 E.03464
G1 X171.48 Y106.493 E.03406
G1 X168.34 Y105.185 E.10665
G1 X167.164 Y104.226 E.04757
G1 X166.676 Y103.537 E.02648
G1 X165.851 Y103.68 E.02625
G1 X164.398 Y103.542 E.04574
G1 X159.96 Y101.727 E.15034
G1 X159.036 Y102.739 E.04295
G1 X157.73 Y104.311 E.06409
G1 X156.496 Y105.933 E.0639
G1 X155.317 Y107.628 E.06473
G1 X154.219 Y109.361 E.06431
G1 X153.197 Y111.139 E.06431
G1 X152.253 Y112.96 E.06432
G1 X151.387 Y114.82 E.06431
G1 X150.602 Y116.715 E.06432
G1 X149.899 Y118.642 E.06431
G1 X149.28 Y120.598 E.06433
G1 X148.745 Y122.578 E.06431
G1 X148.295 Y124.579 E.06432
G1 X147.932 Y126.598 E.06431
G1 X147.656 Y128.63 E.06431
G1 X147.468 Y130.671 E.06424
G1 X147.406 Y132.034 E.0428
G1 X151.827 Y133.89 E.15034
G1 X152.952 Y134.819 E.04574
G1 X153.448 Y135.523 E.027
G1 X153.809 Y135.417 E.01178
G1 X154.958 Y135.368 E.03604
G1 X155.872 Y135.548 E.02921
G1 X158.967 Y136.837 E.10514
G1 X159.844 Y137.477 E.03402
G1 X160.519 Y138.295 E.03326
G1 X160.948 Y139.158 E.03023
G1 X161.203 Y140.32 E.03729
G1 X161.119 Y141.696 E.04322
G1 X160.843 Y142.521 E.02727
G1 X160.413 Y143.291 E.02764
G1 X158.37 Y145.187 E.08739
G1 X157.45 Y145.928 E.03704
G1 X156.557 Y146.857 E.04041
G1 X155.436 Y147.688 E.04377
G1 X154.144 Y148.344 E.0454
G1 X152.844 Y149.197 E.04878
G1 X150.938 Y150.341 E.0697
G1 X149.026 Y151.383 E.06827
G1 X147.074 Y152.343 E.06821
G1 X144.943 Y153.279 E.07297
G1 X142.875 Y154.083 E.06957
G1 X140.759 Y154.803 E.07007
G1 X138.624 Y155.428 E.06977
G1 X136.562 Y155.941 E.0666
G1 X135.041 Y156.257 E.04871
G1 X133.759 Y156.683 E.04236
G1 X132.454 Y156.899 E.0415
G1 X130.998 Y156.886 E.04564
G1 X129.862 Y157.009 E.03582
G1 X127.732 Y157.165 E.06697
G1 X126.539 Y156.998 E.03775
G1 X125.468 Y156.524 E.03674
G1 X124.544 Y155.765 E.0375
G1 X123.799 Y154.702 E.04071
G1 X123.427 Y153.652 E.0349
G1 X123.331 Y152.552 E.03464
G1 X123.507 Y151.48 E.03406
G1 X124.815 Y148.34 E.10665
G1 X125.774 Y147.164 E.04757
G1 X126.463 Y146.676 E.02648
G1 X126.32 Y145.851 E.02625
G1 X126.458 Y144.398 E.04574
G1 X128.273 Y139.96 E.15034
G1 X127.261 Y139.036 E.04295
G1 X125.688 Y137.729 E.06412
G1 X124.058 Y136.489 E.06422
G1 X122.372 Y135.317 E.06438
G1 X120.639 Y134.22 E.06431
G1 X118.861 Y133.197 E.06432
G1 X117.04 Y132.253 E.06432
G1 X115.18 Y131.387 E.06431
G1 X113.285 Y130.602 E.06432
G1 X111.358 Y129.899 E.06432
G1 X109.402 Y129.28 E.06433
G1 X107.422 Y128.745 E.06431
G1 X105.421 Y128.295 E.06432
G1 X103.402 Y127.932 E.06431
G1 X101.37 Y127.656 E.06431
G1 X99.329 Y127.468 E.06424
G1 X97.966 Y127.406 E.0428
G1 X96.11 Y131.827 E.15034
G1 X95.181 Y132.952 E.04574
G1 X94.477 Y133.448 E.027
G1 X94.583 Y133.809 E.01178
G1 X94.632 Y134.958 E.03604
G1 X94.452 Y135.872 E.02921
G1 X93.163 Y138.967 E.10514
G1 X92.523 Y139.844 E.03402
G1 X91.705 Y140.519 E.03326
