; generated by PrusaSlicer 2.5.0+win64 on 2023-09-23 at 21:47:11 UTC


;
;
; 

; external perimeters extrusion width = 0.45mm
; perimeters extrusion width = 0.45mm
; infill extrusion width = 0.45mm
; solid infill extrusion width = 0.45mm
; top infill extrusion width = 0.40mm
; first layer extrusion width = 0.42mm

M73 P0 R89
M73 Q0 S90
M201 X1000 Y1000 Z200 E5000 ; sets maximum accelerations, mm/sec^2
M203 X200 Y200 Z12 E120 ; sets maximum feedrates, mm / sec
M204 P1250 R1250 T1250 ; sets acceleration (P, T) and retract acceleration (R), mm/sec^2
M205 X8.00 Y8.00 Z0.40 E4.50 ; sets the jerk limits, mm/sec
M205 S0 T0 ; sets the minimum extruding and travel feed rate, mm/sec
M107
;TYPE:Custom
M862.3 P "MK3S" ; printer model check
M862.1 P0.4 ; nozzle diameter check
M115 U3.11.0 ; tell printer latest fw version
G90 ; use absolute coordinates
M83 ; extruder relative mode
M104 S215 ; set extruder temp
M140 S60 ; set bed temp
M190 S60 ; wait for bed temp
M109 S215 ; wait for extruder temp
G28 W ; home all without mesh bed level
G80 ; mesh bed leveling

G1 Z0.2 F720
G1 Y-3 F1000 ; go outside print area
G92 E0
G1 X60 E9 F1000 ; intro line
G1 X100 E12.5 F1000 ; intro line

G92 E0
M221 S95

; Don't change E values below. Excessive value can damage the printer.

M907 E538 ; set extruder motor current
G21 ; set units to millimeters
G90 ; use absolute coordinates
M83 ; use relative distances for extrusion
M900 K0.05 ; Filament gcode LA 1.5
M900 K30 ; Filament gcode LA 1.0
M107
;LAYER_CHANGE
;Z:0.2
;HEIGHT:0.2
;BEFORE_LAYER_CHANGE
G92 E0.0
;0.2


G1 E-.8 F2100
G1 Z.4 F720
;AFTER_LAYER_CHANGE
;0.2
G1 X80.832 Y71.463 F10800
G1 Z.2 F720
G1 E.8 F2100
M204 S800
;TYPE:Skirt/Brim
;WIDTH:0.42
G1 F1200
G1 X85.511 Y66.17 E.22149
G1 X86.383 Y65.549 E.03356
G1 X124.41 Y49.797 E1.29058
G1 X125.466 Y49.62 E.03356
G1 X132.632 Y50.061 E.22511
G1 X134.462 Y50.353 E.05809
G1 X139.415 Y51.636 E.16043
G1 X141.779 Y52.331 E.07727
G1 X146.103 Y53.91 E.14434
G1 X150.332 Y55.87 E.14614
G1 X152.541 Y57.073 E.07888
G1 X157.14 Y59.792 E.16751
G1 X158.449 Y60.754 E.05094
G1 X163.83 Y65.511 E.22518
G1 X164.451 Y66.383 E.03356
G1 X180.203 Y104.41 E1.29058
G1 X180.379 Y105.466 E.03356
G1 X179.914 Y112.861 E.23232
G1 X179.647 Y114.462 E.05089
G1 X178.364 Y119.415 E.16043
G1 X177.653 Y121.827 E.07885
G1 X176.09 Y126.103 E.14275
G1 X174.13 Y130.332 E.14614
G1 X172.927 Y132.541 E.07888
G1 X170.208 Y137.14 E.16751
G1 X169.246 Y138.449 E.05094
G1 X164.489 Y143.83 E.22518
G1 X163.617 Y144.451 E.03356
G1 X125.59 Y160.203 E1.29058
G1 X124.534 Y160.379 E.03356
M73 P0 R88
G1 X117.139 Y159.914 E.23232
G1 X115.538 Y159.647 E.05089
G1 X110.585 Y158.364 E.16043
G1 X108.173 Y157.653 E.07885
G1 X103.897 Y156.09 E.14275
G1 X99.668 Y154.13 E.14614
G1 X97.459 Y152.927 E.07888
G1 X92.86 Y150.208 E.16751
G1 X91.551 Y149.246 E.05094
G1 X86.17 Y144.489 E.22518
G1 X85.549 Y143.617 E.03356
G1 X69.797 Y105.59 E1.29058
G1 X69.621 Y104.534 E.03356
G1 X70.086 Y97.139 E.23232
G1 X70.353 Y95.538 E.05089
G1 X71.636 Y90.585 E.16043
G1 X72.347 Y88.173 E.07885
G1 X73.91 Y83.897 E.14275
G1 X75.87 Y79.668 E.14614
G1 X77.073 Y77.459 E.07888
G1 X79.792 Y72.86 E.16751
G1 X80.793 Y71.508 E.05275
M204 S1000
;WIPE_START
G1 F8640
G1 X82.973 Y69.042 E-.76
;WIPE_END
G1 E-.04 F2100
G1 Z.6 F720
G1 X82.789 Y73.276 F10800
G1 Z.2 F720
G1 E.8 F2100
M204 S800
G1 F1200
G1 X83.792 Y72.296 E.04396
G1 X84.508 Y71.407 E.03581
G1 X86.209 Y69.511 E.07988
G1 X87.25 Y68.844 E.03874
G1 X88.249 Y68.508 E.03304
G1 X89.301 Y68.399 E.03317
G1 X90.708 Y68.615 E.04464
G1 X91.863 Y69.134 E.0397
G1 X92.828 Y69.93 E.03924
G1 X93.554 Y70.96 E.03951
G1 X94.805 Y73.992 E.10284
G1 X95.015 Y75.121 E.03598
G1 X94.926 Y76.405 E.04036
G1 X95.452 Y76.786 E.02036
G1 X96.447 Y78 E.04922
G1 X98.211 Y82.205 E.14299
G1 X99.303 Y82.156 E.03426
G1 X101.326 Y81.969 E.0637
G1 X103.346 Y81.695 E.0639
G1 X105.346 Y81.335 E.06372
G1 X107.333 Y80.889 E.06386
G1 X109.297 Y80.358 E.06377
G1 X111.237 Y79.744 E.06381
G1 X113.148 Y79.046 E.0638
G1 X115.028 Y78.268 E.0638
G1 X116.873 Y77.409 E.06381
G1 X118.679 Y76.472 E.0638
G1 X120.444 Y75.458 E.06382
G1 X122.164 Y74.369 E.06382
G1 X123.835 Y73.207 E.06381
G1 X125.455 Y71.975 E.06381
G1 X127.014 Y70.679 E.06359
G1 X127.824 Y69.939 E.03438
G1 X126.099 Y65.718 E.14297
G1 X125.943 Y64.159 E.04915
G1 X126.043 Y63.535 E.01981
G1 X125.104 Y62.704 E.0393
G1 X124.433 Y61.738 E.03686
G1 X123.138 Y58.602 E.1064
G1 X122.949 Y57.29 E.04156
G1 X123.089 Y56.132 E.03658
G1 X123.551 Y54.964 E.03938
G1 X124.276 Y53.968 E.03864
G1 X125.191 Y53.204 E.03736
G1 X126.226 Y52.707 E.036
G1 X127.348 Y52.474 E.03594
G1 X129.879 Y52.614 E.07945
G1 X131.016 Y52.737 E.03588
G1 X132.496 Y52.726 E.0464
G1 X133.744 Y52.925 E.03962
G1 X135.138 Y53.378 E.04597
G1 X136.65 Y53.693 E.04841
G1 X138.728 Y54.209 E.06716
G1 X140.894 Y54.845 E.07078
G1 X143.024 Y55.57 E.07054
G1 X145.117 Y56.384 E.07041
G1 X147.171 Y57.286 E.07033
G1 X149.189 Y58.277 E.07049
G1 X151.153 Y59.347 E.07012
G1 X153.042 Y60.482 E.0691
G1 X154.334 Y61.329 E.04843
G1 X155.647 Y61.999 E.04623
G1 X156.818 Y62.87 E.04575
G1 X157.706 Y63.793 E.04016
G1 X158.622 Y64.533 E.03691
G1 X160.692 Y66.454 E.08855
G1 X161.182 Y67.312 E.03097
G1 X161.484 Y68.208 E.02967
G1 X161.577 Y69.735 E.04794
G1 X161.297 Y70.988 E.04028
G1 X160.824 Y71.927 E.03297
G1 X160.086 Y72.813 E.03615
G1 X159.133 Y73.502 E.03686
G1 X155.999 Y74.807 E.10644
G1 X154.965 Y75.009 E.03306
G1 X153.585 Y74.941 E.04332
G1 X153.214 Y75.452 E.01979
G1 X152 Y76.447 E.04922
G1 X147.795 Y78.211 E.14299
G1 X147.844 Y79.303 E.03426
G1 X148.031 Y81.326 E.0637
G1 X148.305 Y83.346 E.0639
G1 X148.665 Y85.346 E.06372
G1 X149.111 Y87.333 E.06386
G1 X149.642 Y89.297 E.06377
G1 X150.256 Y91.237 E.06381
G1 X150.954 Y93.148 E.06381
G1 X151.732 Y95.028 E.0638
G1 X152.591 Y96.873 E.06381
G1 X153.528 Y98.679 E.06379
G1 X154.542 Y100.444 E.06383
G1 X155.631 Y102.164 E.06382
G1 X156.793 Y103.835 E.06381
G1 X158.025 Y105.455 E.06381
G1 X159.321 Y107.014 E.06359
G1 X160.061 Y107.824 E.03438
G1 X164.282 Y106.099 E.14297
G1 X165.841 Y105.943 E.04915
G1 X166.505 Y106.049 E.02107
G1 X166.905 Y105.499 E.02134
G1 X168.169 Y104.478 E.05096
G1 X171.355 Y103.151 E.1082
G1 X172.561 Y102.953 E.03831
G1 X173.755 Y103.063 E.03761
G1 X174.896 Y103.475 E.03804
G1 X176.04 Y104.284 E.04393
G1 X176.832 Y105.249 E.03914
G1 X177.354 Y106.411 E.03995
G1 X177.543 Y107.74 E.04206
G1 X177.385 Y109.893 E.06769
G1 X177.263 Y111.016 E.03544
G1 X177.274 Y112.499 E.04648
G1 X177.046 Y113.864 E.04341
G1 X176.622 Y115.139 E.04214
G1 X176.307 Y116.649 E.04837
G1 X175.794 Y118.718 E.06684
G1 X175.163 Y120.868 E.07025
G1 X174.441 Y122.994 E.0704
G1 X173.629 Y125.083 E.07028
G1 X172.683 Y127.237 E.07376
G1 X171.719 Y129.198 E.06852
G1 X170.67 Y131.124 E.06876
G1 X169.518 Y133.041 E.07011
G1 X168.671 Y134.334 E.04846
G1 X168.001 Y135.647 E.04623
G1 X167.13 Y136.818 E.04575
G1 X166.207 Y137.706 E.04016
G1 X165.468 Y138.622 E.0369
G1 X163.501 Y140.728 E.09036
G1 X162.689 Y141.181 E.02914
G1 X161.792 Y141.484 E.0297
G1 X160.265 Y141.577 E.04794
G1 X159.012 Y141.297 E.04028
G1 X158.073 Y140.824 E.03297
G1 X157.187 Y140.086 E.03615
G1 X156.498 Y139.133 E.03686
G1 X155.193 Y135.999 E.10644
G1 X154.991 Y134.965 E.03306
G1 X155.059 Y133.585 E.04332
G1 X154.548 Y133.214 E.01979
G1 X153.553 Y132 E.04922
G1 X151.789 Y127.795 E.14299
G1 X150.697 Y127.844 E.03426
G1 X148.674 Y128.031 E.0637
G1 X146.654 Y128.305 E.0639
G1 X144.654 Y128.665 E.06372
G1 X142.667 Y129.111 E.06386
G1 X140.703 Y129.642 E.06377
G1 X138.763 Y130.256 E.06381
G1 X136.88 Y130.943 E.06286
G1 X134.97 Y131.733 E.06479
G1 X133.127 Y132.591 E.06376
G1 X131.321 Y133.528 E.0638
G1 X129.556 Y134.542 E.06383
G1 X127.836 Y135.631 E.06382
G1 X126.166 Y136.792 E.06379
G1 X124.545 Y138.025 E.06384
G1 X122.986 Y139.321 E.06358
G1 X122.176 Y140.061 E.03438
G1 X123.901 Y144.282 E.14299
G1 X124.057 Y145.844 E.04922
G1 X123.951 Y146.505 E.02098
G1 X124.497 Y146.9 E.02113
G1 X125.489 Y148.114 E.04916
G1 X126.848 Y151.352 E.11011
G1 X127.047 Y152.56 E.03839
G1 X126.937 Y153.755 E.03761
G1 X126.525 Y154.896 E.03804
G1 X125.716 Y156.04 E.04393
G1 X124.751 Y156.832 E.03914
G1 X123.589 Y157.354 E.03995
G1 X122.26 Y157.543 E.04206
G1 X120.107 Y157.385 E.06769
G1 X118.984 Y157.263 E.03544
G1 X117.501 Y157.274 E.04648
G1 X116.136 Y157.046 E.04341
G1 X114.861 Y156.622 E.04214
G1 X113.351 Y156.307 E.04837
G1 X111.282 Y155.794 E.06684
G1 X109.132 Y155.163 E.07025
G1 X107.006 Y154.441 E.0704
G1 X104.917 Y153.629 E.07028
G1 X102.763 Y152.683 E.07376
G1 X100.802 Y151.719 E.06852
G1 X98.876 Y150.67 E.06876
G1 X96.959 Y149.518 E.07011
G1 X95.666 Y148.671 E.04846
G1 X94.353 Y148.001 E.04623
G1 X93.182 Y147.13 E.04575
G1 X92.294 Y146.207 E.04016
G1 X91.378 Y145.468 E.0369
G1 X89.272 Y143.501 E.09036
G1 X88.819 Y142.689 E.02914
G1 X88.516 Y141.792 E.0297
G1 X88.423 Y140.265 E.04794
G1 X88.703 Y139.012 E.04028
G1 X89.176 Y138.073 E.03297
G1 X89.914 Y137.187 E.03615
G1 X90.867 Y136.498 E.03686
G1 X94.001 Y135.193 E.10644
G1 X95.035 Y134.991 E.03306
G1 X96.415 Y135.059 E.04332
G1 X96.786 Y134.548 E.01979
G1 X98 Y133.553 E.04922
G1 X102.205 Y131.789 E.14299
G1 X102.156 Y130.697 E.03426
G1 X101.969 Y128.674 E.0637
G1 X101.695 Y126.654 E.0639
G1 X101.335 Y124.654 E.06372
G1 X100.889 Y122.667 E.06386
G1 X100.358 Y120.703 E.06377
G1 X99.744 Y118.763 E.06381
G1 X99.057 Y116.88 E.06286
G1 X98.267 Y114.97 E.06479
G1 X97.409 Y113.127 E.06376
G1 X96.472 Y111.321 E.0638
G1 X95.458 Y109.556 E.06383
G1 X94.369 Y107.836 E.06381
G1 X93.207 Y106.165 E.06381
G1 X91.975 Y104.545 E.06381
G1 X90.679 Y102.986 E.06358
G1 X89.939 Y102.176 E.03438
G1 X85.718 Y103.901 E.14299
G1 X84.156 Y104.057 E.04922
G1 X83.495 Y103.951 E.02098
G1 X83.1 Y104.497 E.02113
G1 X81.886 Y105.489 E.04916
G1 X78.648 Y106.848 E.11011
G1 X77.44 Y107.047 E.03839
G1 X76.245 Y106.937 E.03761
G1 X75.104 Y106.525 E.03804
G1 X73.96 Y105.716 E.04393
G1 X73.168 Y104.751 E.03914
G1 X72.646 Y103.589 E.03995
G1 X72.457 Y102.26 E.04206
G1 X72.615 Y100.107 E.06769
G1 X72.737 Y98.984 E.03544
G1 X72.726 Y97.501 E.04648
G1 X72.954 Y96.136 E.04341
G1 X73.378 Y94.861 E.04214
G1 X73.693 Y93.351 E.04837
G1 X74.206 Y91.282 E.06684
G1 X74.837 Y89.132 E.07025
G1 X75.559 Y87.006 E.0704
G1 X76.371 Y84.917 E.07028
G1 X77.317 Y82.763 E.07376
G1 X78.281 Y80.802 E.06852
G1 X79.33 Y78.876 E.06876
G1 X80.482 Y76.959 E.07011
G1 X81.329 Y75.666 E.04847
G1 X81.999 Y74.352 E.04624
G1 X82.753 Y73.325 E.03996
M204 S1000
G1 X83.056 Y73.546 F10800
M204 S800
G1 F1200
G1 X84.071 Y72.55 E.04458
G1 X84.792 Y71.654 E.03607
G1 X86.436 Y69.813 E.07738
G1 X87.394 Y69.193 E.03578
G1 X88.311 Y68.881 E.03038
G1 X89.27 Y68.776 E.03026
G1 X90.578 Y68.97 E.04143
G1 X91.684 Y69.467 E.03804
G1 X92.567 Y70.203 E.03605
G1 X93.213 Y71.123 E.03525
G1 X94.449 Y74.119 E.10159
G1 X94.637 Y75.119 E.03191
G1 X94.553 Y76.339 E.03835
G1 X94.491 Y76.561 E.00722
G1 X95.179 Y77.046 E.02638
G1 X96.11 Y78.172 E.04581
G1 X97.966 Y82.594 E.15036
G1 X99.329 Y82.532 E.04279
G1 X101.369 Y82.344 E.06423
G1 X103.404 Y82.067 E.06441
G1 X105.421 Y81.705 E.06423
G1 X107.424 Y81.255 E.06437
G1 X109.403 Y80.72 E.06427
G1 X111.358 Y80.101 E.06432
G1 X113.285 Y79.398 E.06431
G1 X115.18 Y78.613 E.06431
G1 X117.04 Y77.747 E.06431
G1 X118.86 Y76.803 E.06431
G1 X120.639 Y75.781 E.06433
G1 X122.373 Y74.683 E.06433
G1 X124.057 Y73.512 E.06432
G1 X125.689 Y72.27 E.06431
G1 X127.262 Y70.963 E.06412
G1 X128.273 Y70.04 E.04291
G1 X126.458 Y65.602 E.15034
G1 X126.32 Y64.15 E.04574
G1 X126.468 Y63.295 E.0272
G1 X126.148 Y63.131 E.01126
G1 X125.401 Y62.47 E.03129
G1 X124.755 Y61.54 E.0355
G1 X123.496 Y58.481 E.10373
G1 X123.325 Y57.263 E.03854
G1 X123.46 Y56.203 E.03351
G1 X123.87 Y55.165 E.035
G1 X124.538 Y54.24 E.03575
G1 X125.376 Y53.534 E.03439
G1 X126.368 Y53.057 E.03449
G1 X127.399 Y52.849 E.03298
G1 X129.852 Y52.99 E.07705
G1 X130.998 Y53.114 E.03614
G1 X132.452 Y53.1 E.04561
G1 X133.67 Y53.295 E.03865
G1 X135.041 Y53.743 E.04523
G1 X136.562 Y54.059 E.04873
G1 X138.634 Y54.574 E.06692
G1 X140.784 Y55.206 E.07028
G1 X142.899 Y55.926 E.07003
G1 X144.976 Y56.734 E.06991
G1 X147.016 Y57.63 E.06983
G1 X149.019 Y58.614 E.06999
G1 X150.969 Y59.676 E.06962
G1 X152.844 Y60.804 E.06861
G1 X154.144 Y61.656 E.04875
G1 X155.436 Y62.312 E.0454
G1 X156.557 Y63.143 E.04377
G1 X157.45 Y64.072 E.04041
G1 X158.37 Y64.813 E.03704
G1 X160.413 Y66.709 E.08739
G1 X160.843 Y67.479 E.02764
G1 X161.119 Y68.304 E.02727
G1 X161.203 Y69.68 E.04322
G1 X160.948 Y70.842 E.03729
G1 X160.519 Y71.705 E.03023
G1 X159.844 Y72.523 E.03326
G1 X158.967 Y73.163 E.03402
G1 X155.872 Y74.452 E.10514
G1 X154.958 Y74.632 E.02921
G1 X153.807 Y74.582 E.03612
G1 X153.45 Y74.475 E.01167
G1 X152.954 Y75.179 E.027
M73 P1 R88
G1 X151.828 Y76.11 E.04581
G1 X147.406 Y77.966 E.15036
G1 X147.468 Y79.329 E.04279
G1 X147.656 Y81.369 E.06423
G1 X147.933 Y83.404 E.06441
G1 X148.295 Y85.421 E.06423
G1 X148.745 Y87.424 E.06437
G1 X149.28 Y89.403 E.06427
M73 Q1 S90
G1 X149.899 Y91.358 E.06432
G1 X150.602 Y93.285 E.06432
G1 X151.387 Y95.18 E.0643
G1 X152.253 Y97.04 E.06432
G1 X153.197 Y98.86 E.0643
G1 X154.219 Y100.639 E.06434
G1 X155.317 Y102.373 E.06432
G1 X156.488 Y104.057 E.06432
G1 X157.73 Y105.689 E.06431
G1 X159.037 Y107.262 E.06412
G1 X159.96 Y108.273 E.04291
G1 X164.398 Y106.458 E.15034
G1 X165.851 Y106.32 E.04574
G1 X166.676 Y106.463 E.02625
G1 X167.164 Y105.774 E.02648
G1 X168.34 Y104.815 E.04757
G1 X171.48 Y103.507 E.10665
G1 X172.552 Y103.331 E.03406
G1 X173.652 Y103.427 E.03464
G1 X174.702 Y103.799 E.0349
G1 X175.765 Y104.544 E.04071
G1 X176.524 Y105.468 E.0375
G1 X176.998 Y106.539 E.03673
G1 X177.165 Y107.732 E.03775
G1 X177.009 Y109.862 E.06697
G1 X176.886 Y110.998 E.03582
M73 Q1 S89
G1 X176.899 Y112.454 E.04564
G1 X176.683 Y113.759 E.04149
G1 X176.257 Y115.041 E.04236
G1 X175.941 Y116.562 E.04871
G1 X175.429 Y118.624 E.0666
G1 X174.803 Y120.758 E.06975
G1 X174.085 Y122.869 E.06989
G1 X173.279 Y124.943 E.06977
G1 X172.343 Y127.074 E.07299
G1 X171.382 Y129.028 E.06827
G1 X170.34 Y130.94 E.06827
G1 X169.197 Y132.844 E.06962
G1 X168.344 Y134.144 E.04877
G1 X167.688 Y135.436 E.0454
G1 X166.857 Y136.557 E.04377
G1 X165.928 Y137.45 E.04041
G1 X165.187 Y138.37 E.03704
G1 X163.291 Y140.413 E.08739
G1 X162.521 Y140.843 E.02764
G1 X161.696 Y141.119 E.02727
G1 X160.32 Y141.203 E.04322
G1 X159.158 Y140.948 E.03729
G1 X158.295 Y140.519 E.03023
G1 X157.477 Y139.844 E.03326
G1 X156.837 Y138.967 E.03402
G1 X155.548 Y135.872 E.10514
G1 X155.368 Y134.958 E.02921
G1 X155.418 Y133.807 E.03612
G1 X155.525 Y133.45 E.01167
G1 X154.821 Y132.954 E.027
G1 X153.89 Y131.828 E.04581
G1 X152.034 Y127.406 E.15036
G1 X150.671 Y127.468 E.04279
G1 X148.631 Y127.656 E.06423
G1 X146.596 Y127.933 E.06441
G1 X144.579 Y128.295 E.06423
G1 X142.576 Y128.745 E.06437
G1 X140.597 Y129.28 E.06427
G1 X138.642 Y129.899 E.06432
G1 X136.743 Y130.592 E.06337
G1 X134.819 Y131.388 E.06529
G1 X132.96 Y132.253 E.06427
G1 X131.14 Y133.197 E.06431
G1 X129.361 Y134.219 E.06433
G1 X127.627 Y135.317 E.06433
G1 X125.944 Y136.487 E.06429
G1 X124.31 Y137.73 E.06435
G1 X122.738 Y139.037 E.06411
G1 X121.727 Y139.96 E.04291
G1 X123.542 Y144.399 E.15035
G1 X123.679 Y145.853 E.04581
G1 X123.538 Y146.676 E.02618
G1 X124.223 Y147.161 E.02632
G1 X125.152 Y148.286 E.04576
G1 X126.492 Y151.478 E.10854
G1 X126.669 Y152.552 E.03412
G1 X126.573 Y153.652 E.03465
G1 X126.201 Y154.702 E.0349
G1 X125.456 Y155.765 E.04071
G1 X124.532 Y156.524 E.0375
G1 X123.461 Y156.998 E.03673
G1 X122.268 Y157.165 E.03775
G1 X120.138 Y157.009 E.06697
G1 X119.002 Y156.886 E.03582
G1 X117.546 Y156.899 E.04564
G1 X116.241 Y156.683 E.04149
G1 X114.959 Y156.257 E.04236
G1 X113.438 Y155.941 E.04871
G1 X111.376 Y155.429 E.0666
G1 X109.242 Y154.803 E.06975
G1 X107.131 Y154.085 E.06989
G1 X105.057 Y153.279 E.06977
G1 X102.926 Y152.343 E.07299
G1 X100.972 Y151.382 E.06827
G1 X99.06 Y150.34 E.06827
G1 X97.156 Y149.197 E.06962
G1 X95.856 Y148.344 E.04877
G1 X94.564 Y147.688 E.0454
G1 X93.443 Y146.857 E.04377
G1 X92.55 Y145.928 E.04041
G1 X91.63 Y145.187 E.03704
G1 X89.587 Y143.291 E.08739
G1 X89.157 Y142.521 E.02764
