; generated by PrusaSlicer 2.5.0+win64 on 2023-09-26 at 14:12:59 UTC


;
;
; 

; external perimeters extrusion width = 0.45mm
; perimeters extrusion width = 0.45mm
; infill extrusion width = 0.45mm
; solid infill extrusion width = 0.45mm
; top infill extrusion width = 0.40mm
; first layer extrusion width = 0.42mm

M73 P0 R80
M73 Q0 S81
M201 X1000 Y1000 Z200 E5000 ; sets maximum accelerations, mm/sec^2
M203 X200 Y200 Z12 E120 ; sets maximum feedrates, mm / sec
M204 P1250 R1250 T1250 ; sets acceleration (P, T) and retract acceleration (R), mm/sec^2
M205 X8.00 Y8.00 Z0.40 E4.50 ; sets the jerk limits, mm/sec
M205 S0 T0 ; sets the minimum extruding and travel feed rate, mm/sec
M107
;TYPE:Custom
M862.3 P "MK3S" ; printer model check
M862.1 P0.4 ; nozzle diameter check
M115 U3.11.0 ; tell printer latest fw version
G90 ; use absolute coordinates
M83 ; extruder relative mode
M104 S215 ; set extruder temp
M140 S60 ; set bed temp
M190 S60 ; wait for bed temp
M109 S215 ; wait for extruder temp
G28 W ; home all without mesh bed level
G80 ; mesh bed leveling

G1 Z0.2 F720
G1 Y-3 F1000 ; go outside print area
G92 E0
G1 X60 E9 F1000 ; intro line
G1 X100 E12.5 F1000 ; intro line

G92 E0
M221 S95

; Don't change E values below. Excessive value can damage the printer.
M907 E430 ; set extruder motor current
G21 ; set units to millimeters
G90 ; use absolute coordinates
M83 ; use relative distances for extrusion
M900 K0.05 ; Filament gcode LA 1.5
M900 K30 ; Filament gcode LA 1.0
M107
;LAYER_CHANGE
;Z:0.2
;HEIGHT:0.2
;BEFORE_LAYER_CHANGE
G92 E0.0
;0.2


G1 E-.8 F2100
G1 Z.4 F720
;AFTER_LAYER_CHANGE
;0.2
G1 X102.87 Y101.049 F10800
G1 Z.2 F720
G1 E.8 F2100
M204 S800
;TYPE:Skirt/Brim
;WIDTH:0.42
G1 F1200
G1 X103.756 Y100.41 E.03426
G1 X141.883 Y84.617 E1.29394
G1 X142.987 Y84.444 E.03503
G1 X147.224 Y84.849 E.13347
G1 X151.454 Y85.62 E.13481
G1 X155.604 Y86.749 E.13486
G1 X159.64 Y88.227 E.13474
G1 X163.442 Y89.995 E.13147
G1 X167.17 Y92.128 E.13467
G1 X170.703 Y94.57 E.13466
G1 X174.015 Y97.305 E.13467
G1 X174.654 Y98.191 E.03426
G1 X190.447 Y136.318 E1.29394
G1 X190.621 Y137.397 E.03426
G1 X190.217 Y141.649 E.13392
G1 X189.444 Y145.889 E.13514
G1 X188.315 Y150.039 E.13486
G1 X186.837 Y154.074 E.13474
G1 X185.069 Y157.876 E.13147
G1 X182.936 Y161.605 E.13467
G1 X180.494 Y165.137 E.13466
G1 X177.759 Y168.45 E.13467
G1 X176.873 Y169.089 E.03426
G1 X138.746 Y184.881 E1.29394
G1 X137.667 Y185.056 E.03426
G1 X133.405 Y184.65 E.13425
G1 X129.175 Y183.879 E.13481
G1 X125.025 Y182.749 E.13486
G1 X120.989 Y181.272 E.13474
G1 X117.187 Y179.503 E.13147
G1 X113.459 Y177.371 E.13467
G1 X109.926 Y174.928 E.13466
G1 X106.614 Y172.194 E.13467
G1 X105.975 Y171.307 E.03426
G1 X90.182 Y133.18 E1.29394
G1 X90.007 Y132.102 E.03426
G1 X90.412 Y127.85 E.13392
G1 X91.185 Y123.61 E.13514
G1 X92.314 Y119.459 E.13486
G1 X93.792 Y115.424 E.13474
G1 X95.56 Y111.622 E.13147
G1 X97.693 Y107.894 E.13467
G1 X100.135 Y104.361 E.13466
G1 X102.832 Y101.095 E.13279
M204 S1000
; printing object outsidev3.stl id:0 copy 0
;WIPE_START
G1 F8640
G1 X103.756 Y100.41 E-.26576
G1 X105.734 Y99.591 E-.49424
;WIPE_END
G1 E-.04 F2100
G1 Z.6 F720
G1 X130.328 Y176.586 F10800
G1 Z.2 F720
G1 E.8 F2100
M204 S800
;TYPE:Perimeter
;WIDTH:0.419999
G1 F1200
G1 X130.266 Y176.781 E.0064
G1 X130.308 Y177.021 E.00766
G1 X131.735 Y180.456 E.1166
G1 X131.868 Y180.74 E.00984
G1 X132.193 Y181.342 E.02145
G1 X131.983 Y181.263 E.00702
G1 X131.5 Y181.13 E.01572
G1 X129.912 Y180.802 E.05085
G1 X127.958 Y180.316 E.06313
G1 X126.028 Y179.748 E.06308
G1 X124.123 Y179.099 E.06311
G1 X122.247 Y178.368 E.06311
G1 X120.404 Y177.558 E.06311
G1 X118.598 Y176.671 E.06309
G1 X116.831 Y175.708 E.0631
G1 X115.106 Y174.669 E.06313
G1 X113.706 Y173.751 E.05251
G1 X113.115 Y173.438 E.02098
G1 X113.567 Y173.315 E.0147
G1 X114.062 Y173.135 E.0165
G1 X117.078 Y171.889 E.10233
G1 X117.614 Y171.652 E.01837
G1 X117.773 Y171.476 E.00744
G1 X117.846 Y171.245 E.00758
G1 X117.805 Y170.976 E.00853
G1 X116.491 Y167.803 E.10768
G1 X122.248 Y165.419 E.19536
G1 X122.765 Y165.183 E.01783
G1 X122.921 Y164.997 E.00763
G1 X122.985 Y164.732 E.00854
G1 X122.97 Y162.345 E.07484
G1 X122.858 Y160.056 E.07184
G1 X122.649 Y157.799 E.07108
G1 X122.447 Y156.315 E.04695
G1 X122.343 Y155.55 E.02423
G1 X121.942 Y153.321 E.07099
G1 X121.444 Y151.108 E.07114
G1 X120.852 Y148.92 E.07104
G1 X120.167 Y146.76 E.07108
M73 Q0 S80
G1 X119.39 Y144.63 E.07108
G1 X118.832 Y143.282 E.04575
G1 X118.522 Y142.536 E.02532
G1 X117.565 Y140.481 E.07108
G1 X116.521 Y138.469 E.07107
G1 X115.39 Y136.503 E.07111
G1 X114.177 Y134.588 E.07108
G1 X112.883 Y132.727 E.07108
G1 X111.509 Y130.923 E.07108
G1 X110.079 Y129.201 E.07019
G1 X108.537 Y127.5 E.07198
G1 X106.86 Y125.802 E.07484
G1 X106.743 Y125.711 E.00464
G1 X106.52 Y125.637 E.00736
G1 X106.241 Y125.677 E.00884
G1 X100.096 Y128.222 E.20854
G1 X98.782 Y125.049 E.10768
G1 X98.729 Y124.951 E.00349
G1 X98.568 Y124.792 E.0071
G1 X98.283 Y124.7 E.00939
G1 X98.042 Y124.743 E.00766
G1 X94.608 Y126.17 E.1166
G1 X94.323 Y126.302 E.00984
G1 X93.721 Y126.627 E.02145
G1 X93.801 Y126.418 E.00702
G1 X93.934 Y125.935 E.01572
G1 X94.262 Y124.346 E.05085
G1 X94.747 Y122.393 E.06313
G1 X95.315 Y120.462 E.06308
G1 X95.965 Y118.557 E.06311
G1 X96.696 Y116.682 E.06311
G1 X97.505 Y114.839 E.06311
G1 X98.393 Y113.033 E.06309
G1 X99.356 Y111.266 E.0631
G1 X100.395 Y109.541 E.06313
G1 X101.312 Y108.14 E.05251
G1 X101.633 Y107.536 E.02144
G1 X101.699 Y107.847 E.00995
G1 X101.881 Y108.38 E.01765
G1 X103.175 Y111.513 E.10629
G1 X103.412 Y112.048 E.01836
G1 X103.588 Y112.207 E.00744
G1 X103.818 Y112.281 E.00758
G1 X104.087 Y112.24 E.00853
G1 X107.26 Y110.926 E.10768
G1 X109.645 Y116.682 E.19536
G1 X109.88 Y117.2 E.01783
G1 X110.067 Y117.356 E.00763
G1 X110.332 Y117.42 E.00854
G1 X112.743 Y117.404 E.0756
G1 X115.007 Y117.293 E.07108
G1 X117.265 Y117.084 E.07108
G1 X119.512 Y116.778 E.07112
G1 X121.742 Y116.376 E.07104
G1 X123.956 Y115.879 E.07114
G1 X126.143 Y115.287 E.07104
G1 X128.304 Y114.602 E.07108
G1 X130.434 Y113.825 E.07108
G1 X132.528 Y112.957 E.07107
G1 X134.583 Y112 E.07108
G1 X136.594 Y110.955 E.07107
G1 X138.561 Y109.825 E.07111
G1 X140.476 Y108.612 E.07108
G1 X142.337 Y107.317 E.07108
G1 X144.141 Y105.944 E.07108
G1 X145.881 Y104.497 E.07095
G1 X147.564 Y102.972 E.07121
G1 X149.262 Y101.294 E.07484
G1 X149.353 Y101.177 E.00464
G1 X149.426 Y100.955 E.00736
G1 X149.387 Y100.676 E.00884
G1 X146.842 Y94.531 E.20854
G1 X150.015 Y93.217 E.10768
G1 X150.113 Y93.164 E.00349
G1 X150.272 Y93.003 E.0071
G1 X150.363 Y92.718 E.00939
G1 X150.321 Y92.477 E.00766
G1 X148.894 Y89.043 E.1166
G1 X148.761 Y88.758 E.00984
G1 X148.436 Y88.156 E.02145
G1 X148.646 Y88.236 E.00702
G1 X149.129 Y88.368 E.01572
G1 X150.717 Y88.697 E.05085
G1 X152.671 Y89.182 E.06313
G1 X154.601 Y89.75 E.06308
G1 X156.506 Y90.4 E.06311
G1 X158.382 Y91.13 E.06311
G1 X160.225 Y91.94 E.06311
G1 X162.031 Y92.827 E.06309
G1 X163.798 Y93.791 E.0631
G1 X165.523 Y94.829 E.06313
G1 X166.923 Y95.747 E.05251
G1 X167.527 Y96.068 E.02144
G1 X167.217 Y96.133 E.00995
G1 X166.684 Y96.316 E.01765
G1 X163.551 Y97.609 E.10629
G1 X163.015 Y97.847 E.01836
G1 X162.856 Y98.023 E.00744
G1 X162.783 Y98.253 E.00758
G1 X162.823 Y98.522 E.00853
G1 X164.138 Y101.695 E.10768
G1 X158.381 Y104.079 E.19536
G1 X157.864 Y104.315 E.01783
G1 X157.708 Y104.502 E.00763
G1 X157.644 Y104.766 E.00854
G1 X157.659 Y107.178 E.0756
G1 X157.771 Y109.442 E.07108
G1 X157.98 Y111.699 E.07108
G1 X158.286 Y113.947 E.07112
G1 X158.687 Y116.177 E.07104
G1 X159.185 Y118.391 E.07114
G1 X159.776 Y120.578 E.07104
G1 X160.462 Y122.739 E.07108
G1 X161.239 Y124.869 E.07108
G1 X162.107 Y126.962 E.07107
G1 X163.064 Y129.017 E.07108
G1 X164.108 Y131.029 E.07107
G1 X165.239 Y132.995 E.07111
G1 X166.452 Y134.91 E.07108
G1 X167.746 Y136.772 E.07108
G1 X169.12 Y138.576 E.07108
G1 X170.566 Y140.316 E.07095
G1 X172.092 Y141.998 E.07121
G1 X173.769 Y143.697 E.07484
G1 X173.886 Y143.787 E.00464
G1 X174.109 Y143.861 E.00736
G1 X174.388 Y143.822 E.00884
G1 X180.533 Y141.276 E.20854
G1 X181.847 Y144.449 E.10768
G1 X181.9 Y144.548 E.00349
G1 X182.061 Y144.707 E.0071
G1 X182.346 Y144.798 E.00939
G1 X182.587 Y144.755 E.00766
G1 X186.021 Y143.329 E.1166
G1 X186.306 Y143.196 E.00984
G1 X186.908 Y142.871 E.02145
G1 X186.828 Y143.08 E.00702
G1 X186.695 Y143.564 E.01572
G1 X186.367 Y145.152 E.05085
G1 X185.882 Y147.106 E.06313
G1 X185.314 Y149.036 E.06308
G1 X184.664 Y150.941 E.06311
G1 X183.933 Y152.817 E.06311
G1 X183.124 Y154.66 E.06311
G1 X182.236 Y156.466 E.06309
G1 X181.273 Y158.232 E.0631
G1 X180.234 Y159.957 E.06313
G1 X179.317 Y161.358 E.05251
G1 X179.003 Y161.949 E.02098
G1 X178.88 Y161.497 E.0147
G1 X178.7 Y161.002 E.0165
G1 X177.455 Y157.986 E.10233
G1 X177.217 Y157.45 E.01837
G1 X177.041 Y157.291 E.00744
G1 X176.811 Y157.218 E.00758
G1 X176.542 Y157.258 E.00853
G1 X173.369 Y158.572 E.10768
G1 X170.984 Y152.816 E.19536
G1 X170.749 Y152.299 E.01783
G1 X170.562 Y152.142 E.00763
G1 X170.297 Y152.079 E.00854
G1 X167.886 Y152.094 E.0756
G1 X165.622 Y152.206 E.07108
G1 X163.364 Y152.415 E.07108
G1 X161.117 Y152.72 E.07112
G1 X158.887 Y153.122 E.07104
G1 X156.673 Y153.62 E.07114
G1 X154.486 Y154.211 E.07104
G1 X152.325 Y154.896 E.07108
G1 X150.929 Y155.406 E.04659
G1 X150.195 Y155.674 E.02449
G1 X148.101 Y156.542 E.07107
G1 X146.046 Y157.499 E.07108
G1 X144.034 Y158.543 E.07107
G1 X142.639 Y159.345 E.05047
G1 X142.068 Y159.673 E.02064
G1 X140.153 Y160.887 E.07108
G1 X138.301 Y162.175 E.07075
G1 X137.827 Y162.524 E.01844
G1 X136.488 Y163.555 E.05299
G1 X134.766 Y164.985 E.07017
G1 X133.083 Y166.51 E.07121
G1 X131.367 Y168.204 E.0756
G1 X131.276 Y168.321 E.00464
G1 X131.202 Y168.544 E.00736
G1 X131.242 Y168.823 E.00884
G1 X133.787 Y174.968 E.20854
G1 X130.614 Y176.282 E.10768
G1 X130.516 Y176.334 E.00349
G1 X130.357 Y176.496 E.0071
G1 X130.346 Y176.529 E.0011
M204 S1000
G1 X130.66 Y176.723 F10800
M204 S800
;TYPE:External perimeter
G1 F1200
G1 X130.657 Y176.877 E.00481
G1 X132.083 Y180.311 E.1166
G1 X132.307 Y180.788 E.0165
G1 X132.568 Y181.238 E.01632
;WIDTH:0.462197
G1 X132.65 Y181.361 E.00516
;WIDTH:0.504394
G1 X132.732 Y181.485 E.00568
;WIDTH:0.546592
G1 X132.813 Y181.608 E.0062
;WIDTH:0.588789
G1 X132.895 Y181.732 E.00672
;WIDTH:0.630986
G1 X132.977 Y181.855 E.00724
G1 X132.885 Y181.864 E.00452
;WIDTH:0.584511
G1 X132.793 Y181.873 E.00416
;WIDTH:0.538035
G1 X132.701 Y181.882 E.00381
;WIDTH:0.491559
G1 X132.609 Y181.89 E.00345
;WIDTH:0.445083
G1 X132.136 Y181.724 E.01674
;WIDTH:0.419999
G1 X131.423 Y181.499 E.02344
G1 X129.828 Y181.169 E.05108
G1 X127.859 Y180.68 E.06361
G1 X125.913 Y180.108 E.06359
G1 X123.993 Y179.453 E.06361
G1 X122.103 Y178.717 E.06362
G1 X120.245 Y177.9 E.06362
G1 X118.425 Y177.006 E.06359
G1 X116.644 Y176.035 E.06361
G1 X114.905 Y174.988 E.06361
G1 X113.742 Y174.223 E.04366
G1 X113.308 Y173.967 E.01579
;WIDTH:0.447977
G1 X112.88 Y173.746 E.01622
;WIDTH:0.475955
G1 X112.453 Y173.524 E.01735
;WIDTH:0.515768
G1 X112.399 Y173.462 E.00324
;WIDTH:0.55558
G1 X112.345 Y173.399 E.00352
;WIDTH:0.595392
G1 X112.291 Y173.337 E.00379
;WIDTH:0.635204
G1 X112.237 Y173.275 E.00406
G1 X112.294 Y173.265 E.00288
;WIDTH:0.598102
G1 X112.352 Y173.255 E.0027
;WIDTH:0.560999
G1 X112.41 Y173.245 E.00252
;WIDTH:0.523896
G1 X112.584 Y173.195 E.00727
;WIDTH:0.489264
G1 X112.759 Y173.145 E.00674
;WIDTH:0.454632
G1 X112.934 Y173.096 E.00622
;WIDTH:0.419999
G1 X113.439 Y172.961 E.01638
G1 X113.918 Y172.787 E.01598
G1 X117.355 Y171.367 E.1166
G1 X117.461 Y171.256 E.00481
G1 X117.457 Y171.121 E.00424
G1 X115.999 Y167.599 E.11951
G1 X121.955 Y165.132 E.20215
G1 X122.551 Y164.871 E.02039
G1 X122.608 Y164.734 E.00464
G1 X122.593 Y162.347 E.07484
G1 X122.482 Y160.091 E.07083
G1 X122.276 Y157.852 E.0705
G1 X122.074 Y156.366 E.04702
G1 X121.972 Y155.616 E.02373
G1 X121.574 Y153.404 E.07048
G1 X121.08 Y151.206 E.07063
G1 X120.493 Y149.034 E.07054
G1 X120.046 Y147.622 E.04644
G1 X119.813 Y146.889 E.02413
G1 X119.042 Y144.774 E.07058
G1 X118.18 Y142.695 E.07056
G1 X117.23 Y140.655 E.07057
G1 X116.194 Y138.657 E.07057
G1 X115.392 Y137.261 E.05047
G1 X115.072 Y136.705 E.02013
G1 X113.867 Y134.803 E.07058
G1 X112.582 Y132.955 E.07058
G1 X111.219 Y131.164 E.07057
M73 P0 R79
G1 X109.783 Y129.436 E.07045
G1 X108.269 Y127.765 E.07071
G1 X106.544 Y126.032 E.07666
G1 X106.385 Y126.025 E.005
G1 X99.892 Y128.715 E.22036
G1 X98.433 Y125.193 E.11951
G1 X98.34 Y125.095 E.00424
G1 X98.187 Y125.091 E.00481
G1 X94.753 Y126.518 E.1166
G1 X94.276 Y126.742 E.0165
M73 Q1 S80
G1 X93.826 Y127.003 E.01632
;WIDTH:0.462197
G1 X93.703 Y127.085 E.00516
;WIDTH:0.504394
G1 X93.579 Y127.166 E.00568
;WIDTH:0.546592
G1 X93.456 Y127.248 E.0062
;WIDTH:0.588789
G1 X93.332 Y127.33 E.00672
;WIDTH:0.630986
G1 X93.209 Y127.411 E.00724
G1 X93.2 Y127.319 E.00452
;WIDTH:0.584511
M73 P1 R79
G1 X93.191 Y127.227 E.00416
;WIDTH:0.538035
G1 X93.182 Y127.135 E.00381
;WIDTH:0.491559
G1 X93.173 Y127.043 E.00345
;WIDTH:0.445083
G1 X93.339 Y126.571 E.01674
;WIDTH:0.419999
G1 X93.564 Y125.858 E.02344
G1 X93.894 Y124.263 E.05108
G1 X94.383 Y122.294 E.06361
G1 X94.956 Y120.348 E.06359
G1 X95.611 Y118.428 E.06361
G1 X96.347 Y116.537 E.06362
G1 X97.163 Y114.68 E.06362
G1 X98.058 Y112.859 E.06359
G1 X99.029 Y111.078 E.06361
G1 X100.075 Y109.34 E.06361
G1 X100.886 Y108.108 E.04625
G1 X101.151 Y107.64 E.01685
;WIDTH:0.447907
G1 X101.345 Y107.264 E.01426
;WIDTH:0.475814
G1 X101.539 Y106.888 E.01524
;WIDTH:0.515669
G1 X101.602 Y106.834 E.00324
;WIDTH:0.555524
G1 X101.664 Y106.779 E.00352
;WIDTH:0.595379
G1 X101.727 Y106.725 E.00379
;WIDTH:0.635234
G1 X101.789 Y106.671 E.00406
G1 X101.824 Y106.792 E.0062
;WIDTH:0.592187
G1 X101.859 Y106.913 E.00575
;WIDTH:0.54914
G1 X101.893 Y107.034 E.0053
;WIDTH:0.506093
G1 X101.928 Y107.155 E.00485
;WIDTH:0.463046
G1 X101.963 Y107.276 E.0044
;WIDTH:0.419999
G1 X102.067 Y107.769 E.01579
G1 X102.23 Y108.236 E.0155
G1 X103.697 Y111.79 E.12055
G1 X103.808 Y111.895 E.00481
G1 X103.943 Y111.892 E.00424
G1 X107.464 Y110.433 E.11951
G1 X109.932 Y116.39 E.20215
G1 X110.193 Y116.986 E.02039
G1 X110.329 Y117.043 E.00464
G1 X112.716 Y117.028 E.07484
G1 X114.964 Y116.918 E.07058
G1 X117.214 Y116.71 E.07083
G1 X119.447 Y116.407 E.07065
G1 X121.66 Y116.008 E.0705
G1 X123.858 Y115.515 E.07063
G1 X125.376 Y115.105 E.04931
G1 X126.029 Y114.928 E.02123
G1 X128.175 Y114.248 E.07057
G1 X130.29 Y113.476 E.07058
G1 X132.368 Y112.615 E.07056
G1 X134.409 Y111.665 E.07057
G1 X135.898 Y110.893 E.05258
G1 X136.407 Y110.628 E.01798
G1 X138.359 Y109.506 E.0706
G1 X140.26 Y108.302 E.07058
G1 X142.109 Y107.017 E.07058
G1 X143.9 Y105.654 E.07058
G1 X145.622 Y104.223 E.07019
G1 X147.299 Y102.704 E.07096
G1 X149.032 Y100.979 E.07666
G1 X149.039 Y100.82 E.005
G1 X146.349 Y94.327 E.22036
G1 X149.87 Y92.868 E.11951
G1 X149.968 Y92.775 E.00424
G1 X149.972 Y92.622 E.00481
G1 X148.546 Y89.187 E.1166
G1 X148.322 Y88.711 E.0165
G1 X148.061 Y88.261 E.01632
;WIDTH:0.462197
G1 X147.979 Y88.137 E.00516
;WIDTH:0.504394
G1 X147.897 Y88.014 E.00568
;WIDTH:0.546592
G1 X147.816 Y87.89 E.0062
;WIDTH:0.588789
G1 X147.734 Y87.767 E.00672
;WIDTH:0.630986
G1 X147.652 Y87.643 E.00724
G1 X147.744 Y87.635 E.00452
;WIDTH:0.584511
G1 X147.836 Y87.626 E.00416
;WIDTH:0.538035
G1 X147.928 Y87.617 E.00381
;WIDTH:0.491559
G1 X148.02 Y87.608 E.00345
;WIDTH:0.445083
G1 X148.493 Y87.774 E.01674
;WIDTH:0.419999
G1 X149.205 Y87.999 E.02344
G1 X150.801 Y88.329 E.05108
G1 X152.77 Y88.818 E.06361
G1 X154.715 Y89.391 E.06359
G1 X156.636 Y90.046 E.06361
G1 X158.526 Y90.782 E.06362
G1 X160.384 Y91.598 E.06362
G1 X162.204 Y92.492 E.06359
G1 X163.985 Y93.464 E.06361
G1 X165.723 Y94.51 E.06361
G1 X166.956 Y95.32 E.04625
G1 X167.424 Y95.586 E.01685
;WIDTH:0.448177
G1 X168.181 Y95.961 E.0285
;WIDTH:0.493827
G1 X168.245 Y96.034 E.00361
;WIDTH:0.539476
G1 X168.308 Y96.107 E.00398
;WIDTH:0.585125
G1 X168.372 Y96.179 E.00435
;WIDTH:0.630774
G1 X168.435 Y96.252 E.00471
G1 X168.306 Y96.281 E.00649
;WIDTH:0.588619
G1 X168.176 Y96.31 E.00602
;WIDTH:0.546464
G1 X168.047 Y96.339 E.00556
;WIDTH:0.504309
G1 X167.917 Y96.369 E.00509
;WIDTH:0.462154
G1 X167.788 Y96.398 E.00463
