; generated by PrusaSlicer 2.5.0+win64 on 2023-09-23 at 21:39:14 UTC


;
;
; 

; external perimeters extrusion width = 0.45mm
; perimeters extrusion width = 0.45mm
; infill extrusion width = 0.45mm
; solid infill extrusion width = 0.45mm
; top infill extrusion width = 0.40mm
; support material extrusion width = 0.35mm
; first layer extrusion width = 0.42mm

M73 P0 R59
M73 Q0 S59
M201 X1000 Y1000 Z200 E5000 ; sets maximum accelerations, mm/sec^2
M203 X200 Y200 Z12 E120 ; sets maximum feedrates, mm / sec
M204 P1250 R1250 T1250 ; sets acceleration (P, T) and retract acceleration (R), mm/sec^2
M205 X8.00 Y8.00 Z0.40 E4.50 ; sets the jerk limits, mm/sec
M205 S0 T0 ; sets the minimum extruding and travel feed rate, mm/sec
M107
;TYPE:Custom
M862.3 P "MK3S" ; printer model check
M862.1 P0.4 ; nozzle diameter check
M115 U3.11.0 ; tell printer latest fw version
G90 ; use absolute coordinates
M83 ; extruder relative mode
M104 S215 ; set extruder temp
M140 S60 ; set bed temp
M190 S60 ; wait for bed temp
M109 S215 ; wait for extruder temp
G28 W ; home all without mesh bed level
G80 ; mesh bed leveling

G1 Z0.2 F720
G1 Y-3 F1000 ; go outside print area
G92 E0
G1 X60 E9 F1000 ; intro line
G1 X100 E12.5 F1000 ; intro line

G92 E0
M221 S95

; Don't change E values below. Excessive value can damage the printer.
M907 E430 ; set extruder motor current
G21 ; set units to millimeters
G90 ; use absolute coordinates
M83 ; use relative distances for extrusion
M900 K0.05 ; Filament gcode LA 1.5
M900 K30 ; Filament gcode LA 1.0
M107
;LAYER_CHANGE
;Z:0.2
;HEIGHT:0.2
;BEFORE_LAYER_CHANGE
G92 E0.0
;0.2


G1 E-.8 F2100
G1 Z.4 F720
;AFTER_LAYER_CHANGE
;0.2
G1 X108.042 Y90.563 F10800
G1 Z.2 F720
G1 E.8 F2100
M204 S800
;TYPE:Skirt/Brim
;WIDTH:0.42
G1 F1200
G1 X109.438 Y89.069 E.0641
G1 X111.217 Y87.507 E.07424
G1 X112.893 Y86.308 E.06461
G1 X114.861 Y85.172 E.07124
G1 X116.734 Y84.321 E.06451
G1 X118.963 Y83.564 E.07381
G1 X120.971 Y83.098 E.06462
G1 X123.224 Y82.801 E.07126
G1 X125.283 Y82.732 E.0646
G1 X127.629 Y82.886 E.07372
G1 X129.662 Y83.223 E.06461
G1 X131.857 Y83.812 E.07126
G1 X133.786 Y84.536 E.0646
G1 X135.895 Y85.576 E.07372
G1 X137.634 Y86.658 E.06424
G1 X139.447 Y88.048 E.07161
G1 X140.952 Y89.456 E.06463
G1 X142.502 Y91.224 E.07371
G1 X143.701 Y92.899 E.0646
G1 X144.837 Y94.868 E.07126
G1 X145.689 Y96.743 E.0646
G1 X146.445 Y98.97 E.07372
G1 X146.909 Y100.965 E.06425
G1 X147.208 Y103.23 E.07162
G1 X147.277 Y105.29 E.06462
G1 X147.124 Y107.635 E.0737
G1 X146.788 Y109.662 E.0644
G1 X146.198 Y111.864 E.07148
G1 X145.474 Y113.793 E.06461
G1 X144.434 Y115.901 E.07371
G1 X143.344 Y117.651 E.06462
G1 X141.962 Y119.453 E.07122
G1 X140.554 Y120.959 E.06463
G1 X138.786 Y122.509 E.07372
G1 X137.116 Y123.704 E.06438
G1 X135.142 Y124.844 E.07148
G1 X133.266 Y125.696 E.06461
G1 X131.04 Y126.452 E.07372
G1 X129.033 Y126.918 E.0646
G1 X126.784 Y127.214 E.07111
G1 X124.72 Y127.284 E.06476
G1 X122.374 Y127.13 E.07372
G1 X120.352 Y126.795 E.06425
G1 X118.146 Y126.205 E.07162
G1 X116.217 Y125.48 E.06461
G1 X114.108 Y124.441 E.0737
G1 X112.365 Y123.355 E.06439
G1 X110.556 Y121.968 E.07148
G1 X109.051 Y120.56 E.0646
G1 X107.504 Y118.796 E.07357
G1 X106.302 Y117.117 E.06476
G1 X105.166 Y115.148 E.07126
G1 X104.314 Y113.272 E.0646
G1 X103.558 Y111.046 E.07371
G1 X103.092 Y109.039 E.06461
G1 X102.795 Y106.791 E.07109
G1 X102.726 Y104.726 E.06478
G1 X102.88 Y102.38 E.0737
G1 X103.217 Y100.348 E.06461
G1 X103.805 Y98.152 E.07126
G1 X104.529 Y96.223 E.06462
G1 X105.569 Y94.115 E.07371
G1 X106.659 Y92.366 E.06461
G1 X108.006 Y90.61 E.06937
M204 S1000
;WIPE_START
G1 F8640
G1 X109.438 Y89.069 E-.48584
G1 X110.33 Y88.286 E-.27416
;WIPE_END
G1 E-.04 F2100
G1 Z.6 F720
G1 X112.329 Y94.573 F10800
G1 Z.2 F720
G1 E.8 F2100
M204 S800
G1 F1200
G1 X114.611 Y92.295 E.10111
G1 X117.282 Y90.521 E.10052
G1 X120.265 Y89.287 E.10122
G1 X123.408 Y88.67 E.10042
G1 X126.632 Y88.67 E.10111
G1 X129.782 Y89.304 E.10073
G1 X132.769 Y90.543 E.1014
G1 X135.432 Y92.332 E.10059
G1 X137.715 Y94.618 E.10129
G1 X139.492 Y97.293 E.1007
G1 X140.728 Y100.289 E.1016
G1 X141.343 Y103.446 E.10086
G1 X141.336 Y106.665 E.10091
G1 X140.703 Y109.804 E.10042
G1 X139.466 Y112.775 E.10089
G1 X137.664 Y115.454 E.10123
G1 X135.379 Y117.731 E.10115
G1 X132.707 Y119.505 E.10055
G1 X129.737 Y120.728 E.10071
G1 X126.585 Y121.347 E.10073
G1 X123.349 Y121.343 E.10147
G1 X120.19 Y120.703 E.10105
G1 X117.246 Y119.479 E.09998
G1 X114.557 Y117.675 E.10155
G1 X112.294 Y115.403 E.10054
G1 X110.513 Y112.726 E.10081
G1 X109.279 Y109.738 E.10136
G1 X108.662 Y106.593 E.10047
G1 X108.665 Y103.366 E.10121
G1 X109.3 Y100.218 E.10067
G1 X110.541 Y97.231 E.10143
G1 X112.295 Y94.623 E.09855
M204 S1000
G1 X112.606 Y94.831 F10800
M204 S800
G1 F1200
G1 X114.836 Y92.598 E.09895
G1 X117.443 Y90.862 E.09821
G1 X120.357 Y89.653 E.09889
G1 X123.426 Y89.047 E.09811
G1 X126.577 Y89.044 E.09879
G1 X129.655 Y89.659 E.09842
G1 X132.575 Y90.867 E.09907
G1 X135.179 Y92.612 E.09828
G1 X137.411 Y94.843 E.09896
G1 X139.151 Y97.455 E.09839
G1 X140.361 Y100.38 E.09927
G1 X140.966 Y103.465 E.09855
G1 X140.963 Y106.609 E.0986
G1 X140.347 Y109.677 E.09811
G1 X139.142 Y112.581 E.09857
G1 X137.385 Y115.201 E.09892
G1 X135.154 Y117.427 E.09882
M73 P0 R58
G1 X132.546 Y119.163 E.09823
G1 X129.646 Y120.362 E.09839
G1 X126.566 Y120.97 E.09842
G1 X123.405 Y120.97 E.09913
G1 X120.318 Y120.347 E.09875
G1 X117.44 Y119.155 E.09766
G1 X114.81 Y117.395 E.09923
G1 X112.597 Y115.178 E.09822
G1 X110.854 Y112.564 E.0985
G1 X109.645 Y109.647 E.09903
G1 X109.039 Y106.575 E.09816
G1 X109.038 Y103.421 E.09888
G1 X109.655 Y100.345 E.09836
G1 X110.865 Y97.425 E.0991
G1 X112.572 Y94.881 E.09607
M204 S1000
G1 X112.885 Y95.091 F10800
M204 S800
G1 F1200
G1 X115.089 Y92.878 E.09793
G1 X117.636 Y91.186 E.09589
G1 X120.483 Y90.009 E.09659
G1 X123.481 Y89.42 E.09579
G1 X126.558 Y89.421 E.09648
G1 X129.563 Y90.025 E.09609
G1 X132.413 Y91.208 E.09676
G1 X134.953 Y92.914 E.09595
G1 X137.131 Y95.096 E.09665
G1 X138.826 Y97.648 E.09606
G1 X140.005 Y100.506 E.09695
G1 X140.592 Y103.518 E.09622
G1 X140.586 Y106.59 E.09629
G1 X139.982 Y109.584 E.09579
G1 X138.802 Y112.418 E.09625
G1 X137.082 Y114.975 E.0966
G1 X134.901 Y117.147 E.09651
G1 X132.353 Y118.839 E.09591
G1 X129.52 Y120.006 E.09608
G1 X126.512 Y120.597 E.0961
G1 X123.424 Y120.593 E.09681
G1 X120.411 Y119.981 E.09642
G1 X117.602 Y118.814 E.09536
M73 Q0 S58
G1 X115.036 Y117.092 E.0969
G1 X112.877 Y114.925 E.0959
G1 X111.179 Y112.371 E.09619
G1 X110.001 Y109.52 E.09672
G1 X109.413 Y106.521 E.09584
G1 X109.416 Y103.44 E.09658
G1 X110.021 Y100.438 E.09603
G1 X111.206 Y97.588 E.09679
G1 X112.852 Y95.141 E.09245
M204 S1000
G1 X113.162 Y95.349 F10800
M204 S800
G1 F1200
G1 X115.314 Y93.182 E.09577
G1 X117.798 Y91.527 E.09358
G1 X120.575 Y90.375 E.09426
G1 X123.5 Y89.797 E.09348
G1 X126.503 Y89.794 E.09415
G1 X129.436 Y90.381 E.09378
G1 X132.219 Y91.531 E.09443
G1 X134.7 Y93.194 E.09364
G1 X136.828 Y95.32 E.09432
G1 X138.485 Y97.809 E.09375
G1 X139.639 Y100.598 E.09462
G1 X140.215 Y103.537 E.09391
G1 X140.212 Y106.534 E.09398
G1 X139.626 Y109.457 E.09348
G1 X138.478 Y112.224 E.09393
G1 X136.803 Y114.721 E.09428
G1 X134.677 Y116.844 E.09419
G1 X132.192 Y118.498 E.0936
G1 X129.428 Y119.64 E.09376
G1 X126.493 Y120.22 E.09379
G1 X123.48 Y120.22 E.09448
G1 X120.538 Y119.626 E.09411
G1 X117.796 Y118.491 E.09305
G1 X115.289 Y116.813 E.09458
G1 X113.181 Y114.701 E.09358
G1 X111.52 Y112.209 E.09388
G1 X110.367 Y109.429 E.09439
G1 X109.79 Y106.502 E.09353
G1 X109.789 Y103.496 E.09425
G1 X110.377 Y100.565 E.09372
G1 X111.53 Y97.782 E.09446
G1 X113.128 Y95.399 E.08997
M204 S1000
G1 X113.441 Y95.609 F10800
M204 S800
G1 F1200
G1 X113.494 Y95.532 E.00294
G1 X115.567 Y93.462 E.09185
G1 X117.991 Y91.852 E.09125
G1 X120.702 Y90.731 E.09196
G1 X123.554 Y90.171 E.09116
G1 X126.484 Y90.171 E.09185
G1 X129.343 Y90.747 E.09145
G1 X132.057 Y91.872 E.09212
M73 Q1 S58
G1 X134.474 Y93.497 E.09131
G1 X136.548 Y95.573 E.09201
M73 P1 R58
G1 X138.16 Y98.002 E.09142
G1 X139.283 Y100.724 E.0923
G1 X139.841 Y103.59 E.09157
G1 X139.835 Y106.514 E.09167
G1 X139.26 Y109.364 E.09116
G1 X138.137 Y112.061 E.09161
G1 X136.5 Y114.495 E.09196
G1 X134.424 Y116.563 E.09188
G1 X131.999 Y118.173 E.09127
G1 X129.302 Y119.284 E.09145
G1 X126.439 Y119.846 E.09148
G1 X123.5 Y119.843 E.09216
G1 X120.631 Y119.26 E.09178
G1 X117.958 Y118.15 E.09075
G1 X115.515 Y116.51 E.09225
G1 X113.461 Y114.448 E.09126
G1 X111.844 Y112.016 E.09156
G1 X110.723 Y109.302 E.09207
G1 X110.164 Y106.448 E.0912
G1 X110.166 Y103.515 E.09194
G1 X110.743 Y100.658 E.09139
G1 X111.871 Y97.944 E.09215
G1 X113.408 Y95.659 E.08634
M204 S1000
G1 X113.718 Y95.867 F10800
M204 S800
G1 F1200
G1 X113.773 Y95.785 E.00311
G1 X115.792 Y93.765 E.08953
G1 X118.153 Y92.193 E.08895
G1 X120.793 Y91.097 E.08963
G1 X123.573 Y90.548 E.08885
G1 X126.428 Y90.545 E.08952
G1 X129.216 Y91.102 E.08914
G1 X131.863 Y92.196 E.08979
G1 X134.221 Y93.777 E.089
G1 X136.244 Y95.798 E.08968
G1 X137.819 Y98.164 E.08911
G1 X138.917 Y100.815 E.08997
G1 X139.464 Y103.609 E.08926
G1 X139.462 Y106.459 E.08935
G1 X138.905 Y109.237 E.08885
G1 X137.813 Y111.867 E.08929
G1 X136.221 Y114.242 E.08965
G1 X134.2 Y116.26 E.08955
G1 X131.838 Y117.832 E.08896
G1 X129.21 Y118.918 E.08914
G1 X126.42 Y119.469 E.08917
G1 X123.556 Y119.469 E.08982
G1 X120.758 Y118.905 E.08948
G1 X118.152 Y117.826 E.08843
G1 X115.769 Y116.23 E.08993
G1 X113.764 Y114.223 E.08894
G1 X112.185 Y111.854 E.08926
G1 X111.089 Y109.211 E.08974
G1 X110.541 Y106.429 E.0889
G1 X110.539 Y103.571 E.08961
G1 X111.098 Y100.785 E.08908
G1 X112.194 Y98.138 E.08982
G1 X113.685 Y95.917 E.08387
M204 S1000
G1 X113.997 Y96.128 F10800
M204 S800
G1 F1200
G1 X114.076 Y96.011 E.00441
G1 X116.045 Y94.046 E.08722
G1 X118.346 Y92.517 E.08662
G1 X120.92 Y91.453 E.08733
G1 X123.628 Y90.921 E.08653
G1 X126.409 Y90.922 E.08722
G1 X129.124 Y91.468 E.08681
G1 X131.701 Y92.537 E.08748
G1 X133.995 Y94.079 E.08667
G1 X135.964 Y96.051 E.08738
G1 X137.495 Y98.357 E.08677
G1 X138.561 Y100.941 E.08766
G1 X139.091 Y103.662 E.08693
G1 X139.085 Y106.439 E.08705
G1 X138.539 Y109.144 E.08652
G1 X137.473 Y111.705 E.08697
G1 X135.918 Y114.016 E.08732
G1 X133.947 Y115.979 E.08724
G1 X131.645 Y117.507 E.08664
G1 X129.084 Y118.562 E.08682
G1 X126.366 Y119.095 E.08685
G1 X123.575 Y119.092 E.08751
G1 X120.851 Y118.539 E.08714
G1 X118.314 Y117.485 E.08614
G1 X115.994 Y115.928 E.08761
G1 X114.045 Y113.97 E.08662
G1 X112.51 Y111.661 E.08694
G1 X111.445 Y109.084 E.08743
G1 X110.914 Y106.375 E.08657
G1 X110.916 Y103.59 E.08731
G1 X111.464 Y100.878 E.08675
G1 X112.535 Y98.301 E.08751
G1 X113.964 Y96.177 E.08024
M204 S1000
G1 X114.274 Y96.386 F10800
M204 S800
G1 F1200
G1 X114.356 Y96.264 E.00459
G1 X116.269 Y94.349 E.08489
G1 X118.508 Y92.858 E.08432
G1 X121.011 Y91.819 E.085
G1 X123.647 Y91.298 E.08422
G1 X126.354 Y91.295 E.08489
G1 X128.997 Y91.824 E.0845
G1 X131.507 Y92.861 E.08514
G1 X133.742 Y94.359 E.08437
G1 X135.661 Y96.276 E.08505
G1 X137.154 Y98.518 E.08446
G1 X138.195 Y101.032 E.08532
G1 X138.714 Y103.681 E.08462
G1 X138.711 Y106.383 E.08474
G1 X138.183 Y109.017 E.08421
G1 X137.149 Y111.51 E.08465
G1 X135.639 Y113.762 E.08501
G1 X133.722 Y115.676 E.08492
G1 X131.483 Y117.166 E.08432
G1 X128.993 Y118.196 E.08451
G1 X126.347 Y118.718 E.08454
G1 X123.631 Y118.719 E.08517
G1 X120.979 Y118.183 E.08485
G1 X118.508 Y117.161 E.08382
G1 X116.248 Y115.648 E.08529
G1 X114.348 Y113.745 E.0843
G1 X112.851 Y111.5 E.08464
G1 X111.811 Y108.993 E.0851
G1 X111.291 Y106.356 E.08426
G1 X111.29 Y103.646 E.08498
G1 X111.82 Y101.005 E.08444
G1 X112.859 Y98.495 E.08518
G1 X114.241 Y96.436 E.07776
M204 S1000
G1 X114.553 Y96.646 F10800
M204 S800
G1 F1200
G1 X114.658 Y96.49 E.00589
G1 X116.522 Y94.629 E.08259
G1 X118.701 Y93.183 E.08199
G1 X121.138 Y92.175 E.08269
G1 X123.701 Y91.672 E.08189
G1 X126.335 Y91.673 E.08259
G1 X128.904 Y92.19 E.08217
G1 X131.345 Y93.202 E.08284
G1 X133.516 Y94.662 E.08203
G1 X135.381 Y96.529 E.08274
G1 X136.829 Y98.711 E.08213
G1 X137.839 Y101.159 E.08301
G1 X138.34 Y103.735 E.08228
G1 X138.334 Y106.364 E.08243
G1 X137.818 Y108.924 E.08189
G1 X136.808 Y111.348 E.08233
G1 X135.336 Y113.536 E.08269
G1 X133.469 Y115.395 E.08261
G1 X131.29 Y116.842 E.082
G1 X128.866 Y117.84 E.0822
G1 X126.293 Y118.345 E.08223
G1 X123.651 Y118.342 E.08285
G1 X121.072 Y117.818 E.08251
G1 X118.671 Y116.82 E.08153
G1 X116.474 Y115.345 E.08296
G1 X114.629 Y113.493 E.08199
G1 X113.175 Y111.306 E.08232
G1 X112.167 Y108.866 E.08279
G1 X111.665 Y106.302 E.08193
G1 X111.667 Y103.665 E.08267
G1 X112.186 Y101.098 E.08211
G1 X113.2 Y98.657 E.08287
G1 X114.52 Y96.696 E.07413
M204 S1000
G1 X114.83 Y96.904 F10800
M204 S800
G1 F1200
G1 X114.938 Y96.744 E.00606
G1 X116.747 Y94.932 E.08026
G1 X118.862 Y93.524 E.07969
G1 X121.23 Y92.541 E.08036
G1 X123.72 Y92.049 E.07959
G1 X126.28 Y92.046 E.08026
G1 X128.777 Y92.545 E.07986
G1 X131.15 Y93.526 E.0805
G1 X133.263 Y94.942 E.07973
G1 X135.077 Y96.754 E.08041
G1 X136.488 Y98.873 E.07982
G1 X137.473 Y101.25 E.08067
G1 X137.963 Y103.753 E.07997
G1 X137.961 Y106.308 E.08012
G1 X137.462 Y108.797 E.07958
G1 X136.484 Y111.154 E.08001
G1 X135.057 Y113.283 E.08037
G1 X133.245 Y115.092 E.08027
G1 X131.097 Y116.517 E.08082
G1 X128.741 Y117.484 E.07988
G1 X126.275 Y117.968 E.07879
G1 X123.706 Y117.968 E.08052
G1 X121.199 Y117.462 E.08021
G1 X118.865 Y116.496 E.07921
G1 X116.727 Y115.066 E.08064
G1 X114.932 Y113.268 E.07967
G1 X113.516 Y111.145 E.08001
G1 X112.533 Y108.775 E.08045
G1 X112.042 Y106.283 E.07963
G1 X112.04 Y103.72 E.08034
G1 X112.541 Y101.225 E.0798
G1 X113.523 Y98.852 E.08054
G1 X114.797 Y96.954 E.07165
M204 S1000
G1 X115.109 Y97.164 F10800
M204 S800
G1 F1200
G1 X115.24 Y96.97 E.00736
G1 X117 Y95.213 E.07796
G1 X119.056 Y93.848 E.07736
G1 X121.356 Y92.897 E.07806
G1 X123.774 Y92.423 E.07726
G1 X126.261 Y92.423 E.07796
G1 X128.685 Y92.911 E.07753
G1 X130.988 Y93.867 E.07819
G1 X133.037 Y95.244 E.0774
G1 X134.797 Y97.007 E.0781
G1 X136.163 Y99.066 E.07748
G1 X137.117 Y101.376 E.07836
G1 X137.589 Y103.807 E.07764
G1 X137.584 Y106.288 E.07782
G1 X137.096 Y108.704 E.07726
G1 X136.144 Y110.991 E.0777
G1 X134.754 Y113.057 E.07805
G1 X132.993 Y114.811 E.07795
G1 X130.905 Y116.192 E.07848
G1 X128.615 Y117.128 E.07756
G1 X126.221 Y117.594 E.07649
G1 X123.726 Y117.591 E.07822
G1 X121.292 Y117.096 E.07787
G1 X119.027 Y116.155 E.07692
G1 X116.953 Y114.763 E.07831
G1 X115.212 Y113.015 E.07735
G1 X113.84 Y110.951 E.0777
G1 X112.889 Y108.648 E.07814
G1 X112.416 Y106.229 E.0773
G1 X112.417 Y103.74 E.07804
G1 X112.907 Y101.318 E.07747
G1 X113.864 Y99.014 E.07823
G1 X115.076 Y97.214 E.06802
M204 S1000
G1 X115.386 Y97.423 F10800
M204 S800
G1 F1200
G1 X115.52 Y97.223 E.00755
G1 X117.225 Y95.516 E.07564
G1 X119.217 Y94.189 E.07505
G1 X121.448 Y93.263 E.07573
G1 X123.793 Y92.8 E.07496
G1 X126.205 Y92.796 E.07563
G1 X128.558 Y93.267 E.07523
G1 X130.794 Y94.19 E.07586
G1 X132.783 Y95.524 E.07509
G1 X134.494 Y97.231 E.07577
G1 X135.822 Y99.227 E.07518
G1 X136.75 Y101.467 E.07602
G1 X137.212 Y103.825 E.07533
G1 X137.211 Y106.233 E.0755
G1 X136.741 Y108.576 E.07495
G1 X135.82 Y110.797 E.07537
G1 X134.474 Y112.803 E.07574
G1 X132.768 Y114.507 E.07562
G1 X130.745 Y115.851 E.07615
G1 X128.524 Y116.761 E.07525
G1 X126.202 Y117.217 E.0742
G1 X123.782 Y117.218 E.07588
G1 X121.419 Y116.741 E.07558
G1 X119.221 Y115.831 E.0746
G1 X117.207 Y114.483 E.07599
G1 X115.516 Y112.79 E.07503
G1 X114.182 Y110.79 E.07539
G1 X113.255 Y108.557 E.07581
G1 X112.793 Y106.21 E.07499
G1 X112.791 Y103.795 E.07571
G1 X113.262 Y101.445 E.07515
G1 X114.205 Y99.176 E.07706
G1 X115.352 Y97.472 E.06438
M204 S1000
G1 X115.664 Y97.683 F10800
M204 S800
G1 F1200
G1 X115.822 Y97.449 E.00885
G1 X117.478 Y95.796 E.07336
G1 X119.41 Y94.514 E.07272
G1 X121.574 Y93.619 E.07343
G1 X123.848 Y93.173 E.07263
G1 X126.186 Y93.174 E.07332
G1 X128.465 Y93.633 E.07289
G1 X130.632 Y94.531 E.07355
G1 X132.558 Y95.827 E.07276
G1 X134.213 Y97.484 E.07346
G1 X135.498 Y99.42 E.07284
G1 X136.395 Y101.593 E.07371
G1 X136.838 Y103.879 E.07299
G1 X136.833 Y106.213 E.0732
